!!!COM: Vivaldi, Antonio
!!!CDT: 1678/03/04/-1741/07/27/
!!!OTL: Concerto in D Minor, Op. 6, No. 6
!!!OMV: No. 3
!!!OMD: Allegro
**kern	**dynam	**kern	**kern	**dynam	**kern	**dynam	**kern	**dynam	**kern	**dynam	**kern	**dynam	**kern	**dynam
*staff8	*staff8	*staff7	*staff6	*staff6	*staff5	*staff5	*staff4	*staff4	*staff3	*staff3	*staff2	*staff2	*staff1	*staff1
*Icemba	*Icemba	*Icemba	*Icbass	*Icbass	*Icello	*Icello	*Iviola	*Iviola	*Ivioln	*Ivioln	*Ivioln	*Ivioln	*Ivioln	*Ivioln
*clefF4	*clefF4	*clefG2	*clefF4	*clefF4	*clefF4	*clefF4	*clefC3	*clefC3	*clefG2	*clefG2	*clefG2	*clefG2	*clefG2	*clefG2
*k[b-]	*k[b-]	*k[b-]	*k[b-]	*k[b-]	*k[b-]	*k[b-]	*k[b-]	*k[b-]	*k[b-]	*k[b-]	*k[b-]	*k[b-]	*k[b-]	*k[b-]
*M3/4	*M3/4	*M3/4	*M3/4	*M3/4	*M3/4	*M3/4	*M3/4	*M3/4	*M3/4	*M3/4	*M3/4	*M3/4	*M3/4	*M3/4
*MM120	*MM120	*MM120	*MM120	*MM120	*MM120	*MM120	*MM120	*MM120	*MM120	*MM120	*MM120	*MM120	*MM120	*MM120
=1-	=1-	=1-	=1-	=1-	=1-	=1-	=1-	=1-	=1-	=1-	=1-	=1-	=1-	=1-
8.D\L	f	2.r	8.D\L	f	8.D\L	f	8.f\L	f	4dd\	f	4dd\	f	4dd\	f
16C#\k	.	.	16C#\k	.	16C#\k	.	16e\k	.	.	.	.	.	.	.
(8.D\	.	.	8.D\	.	8.D\	.	8.f\	.	[4dd\	.	[4dd\	.	[4dd\	.
16E\k)	.	.	16E\k	.	16E\k	.	16g\k	.	.	.	.	.	.	.
8.F\	.	.	8.F\	.	8.F\	.	8.a\	.	8.dd\L]	.	8.dd\L]	.	8.dd\L]	.
16G\Jk	.	.	16G\Jk	.	16G\Jk	.	16b-\Jk	.	16ee\Jk	.	16ee\Jk	.	16ee\Jk	.
=2	=2	=2	=2	=2	=2	=2	=2	=2	=2	=2	=2	=2	=2	=2
8.C#\L	.	2.r	8.C#\L	.	8.C#\L	.	8.e\L	.	4a/	.	4a/	.	4a/	.
16BB-\k	.	.	16BB-\k	.	16BB-\k	.	16d\k	.	.	.	.	.	.	.
8.AA\	.	.	8.AA\	.	8.AA\	.	8.c#\	.	[4a/	.	[4a/	.	[4a/	.
16BBn\k	.	.	16BBn\k	.	16BBn\k	.	16d\k	.	.	.	.	.	.	.
8.C#\	.	.	8.C#\	.	8.C#\	.	8.e\	.	8.a/L]	.	8.a/L]	.	8.a/L]	.
16D\Jk	.	.	16D\Jk	.	16D\Jk	.	16f\Jk	.	16b-/Jk	.	16b-/Jk	.	16b-/Jk	.
=3	=3	=3	=3	=3	=3	=3	=3	=3	=3	=3	=3	=3	=3	=3
8.E\L	.	2.r	8.E\L	.	8.E\L	.	8.g\L	.	4g/	.	4g/	.	4g/	.
16D\k	.	.	16D\k	.	16D\k	.	16f\k	.	.	.	.	.	.	.
8.C#\	.	.	8.C#\	.	8.C#\	.	8.e\	.	[4g/	.	[4g/	.	[4g/	.
16BBn\k	.	.	16BBn\k	.	16BBn\k	.	16d\k	.	.	.	.	.	.	.
(8.AA\	.	.	(8.AA\	.	8.AA\	.	(8.c#\	.	8.g/L]	.	8.g/L]	.	8.g/L]	.
16C#\Jk)	.	.	16C#\Jk)	.	16C#\Jk	.	16e\Jk)	.	16a/Jk	.	16a/Jk	.	16a/Jk	.
=4	=4	=4	=4	=4	=4	=4	=4	=4	=4	=4	=4	=4	=4	=4
4D\	.	2.r	4D\	.	4D\	.	4A/	.	8f\L	.	8f\L	.	8f\L	.
.	.	.	.	.	.	.	.	.	8d\	.	8d\	.	8d\	.
4D\	.	.	4D\	.	4D\	.	4A/	.	8f\	.	8f\	.	8f\	.
.	.	.	.	.	.	.	.	.	8a\	.	8a\	.	8a\	.
4D\	.	.	4D\	.	4D\	.	4a\	.	8dd\	.	8dd\	.	8dd\	.
.	.	.	.	.	.	.	.	.	8ff\J	.	8ff\J	.	8ff\J	.
=5	=5	=5	=5	=5	=5	=5	=5	=5	=5	=5	=5	=5	=5	=5
4D\	.	2.r	4D\	.	4D\	.	4f\	.	8aa\L	.	8aa\L	.	8aa\L	.
.	.	.	.	.	.	.	.	.	8a\	.	8a\	.	8a\	.
4D\	.	.	4D\	.	4D\	.	4f\	.	8dd\	.	8dd\	.	8dd\	.
.	.	.	.	.	.	.	.	.	8ff\	.	8ff\	.	8ff\	.
4D\	.	.	4D\	.	4D\	.	4f\	.	8aa\	.	8aa\	.	8aa\	.
.	.	.	.	.	.	.	.	.	8bb-\J	.	8bb-\J	.	8bb-\J	.
=6	=6	=6	=6	=6	=6	=6	=6	=6	=6	=6	=6	=6	=6	=6
8.A\L	.	2.r	8.A\L	.	8.A\L	.	4e\	.	4cc#\	.	4cc#\	.	4cc#\	.
16B-\k	.	.	16B-\k	.	16B-\k	.	.	.	.	.	.	.	.	.
8.A\	.	.	8.A\	.	8.A\	.	[4cc#\	.	4r	.	4r	.	4r	.
16G\k	.	.	16G\k	.	16G\k	.	.	.	.	.	.	.	.	.
8.F\	.	.	8.F\	.	8.F\	.	8.cc#\L]	.	4r	.	4r	.	4r	.
16E\Jk	.	.	16E\Jk	.	16E\Jk	.	16dd\Jk	.	.	.	.	.	.	.
=7	=7	=7	=7	=7	=7	=7	=7	=7	=7	=7	=7	=7	=7	=7
4F\	.	2.r	4F\	.	4F\	.	4dd\	.	4aa\	.	4aa\	.	4aa\	.
8.r	.	.	8.r	.	8.r	.	8.r	.	8r	.	8r	.	8r	.
.	.	.	.	.	.	.	.	.	16aa\LL	.	16aa\LL	.	16aa\LL	.
16D\	.	.	16D\	.	16D\	.	16f\	.	16gg\JJ	.	16gg\JJ	.	16gg\JJ	.
8.E\L	.	.	8.E\L	.	8.E\L	.	8.g\L	.	16ff\LL	.	16ff\LL	.	16ff\LL	.
.	.	.	.	.	.	.	.	.	16ee\	.	16ee\	.	16ee\	.
.	.	.	.	.	.	.	.	.	16dd\	.	16dd\	.	16dd\	.
16F#\Jk	.	.	16F#\Jk	.	16F#\Jk	.	16a\Jk	.	16cc\JJ	.	16cc\JJ	.	16cc\JJ	.
=8	=8	=8	=8	=8	=8	=8	=8	=8	=8	=8	=8	=8	=8	=8
4G\	.	2.r	4G\	.	4G\	.	4d\	.	8b-\L	.	8b-\L	.	8b-\L	.
.	.	.	.	.	.	.	.	.	8g\	.	8g\	.	8g\	.
8.r	.	.	8.r	.	8.r	.	8.r	.	8bn\	.	8bn\	.	8bn\	.
.	.	.	.	.	.	.	.	.	8cc#\J	.	8cc#\J	.	8cc#\J	.
16G\	.	.	16G\	.	16G\	.	16b-\	.	.	.	.	.	.	.
8.A\L	.	.	8.A\L	.	8.A\L	.	4dd\	.	4dd\	.	4dd\	.	4dd\	.
16B-\Jk	.	.	16B-\Jk	.	16B-\Jk	.	.	.	.	.	.	.	.	.
=9	=9	=9	=9	=9	=9	=9	=9	=9	=9	=9	=9	=9	=9	=9
4E\	.	2.r	4E\	.	4E\	.	4cc\	.	4gg\	.	4gg\	.	4gg\	.
8.r	.	.	8.r	.	8.r	.	8.r	.	8r	.	8r	.	8r	.
.	.	.	.	.	.	.	.	.	16gg\LL	.	16gg\LL	.	16gg\LL	.
16C/	.	.	16C/	.	16C/	.	16e\	.	16ff\JJ	.	16ff\JJ	.	16ff\JJ	.
8.D\L	.	.	8.D\L	.	8.D\L	.	8.f\L	.	16ee\LL	.	16ee\LL	.	16ee\LL	.
.	.	.	.	.	.	.	.	.	16dd\	.	16dd\	.	16dd\	.
.	.	.	.	.	.	.	.	.	16cc\	.	16cc\	.	16cc\	.
16E\Jk	.	.	16E\Jk	.	16E\Jk	.	16g\Jk	.	16b-\JJ	.	16b-\JJ	.	16b-\JJ	.
=10	=10	=10	=10	=10	=10	=10	=10	=10	=10	=10	=10	=10	=10	=10
4F\	.	2.r	4F\	.	4F\	.	4c\	.	8a\L	.	8a\L	.	8a\L	.
.	.	.	.	.	.	.	.	.	8f\	.	8f\	.	8f\	.
8.r	.	.	8.r	.	8.r	.	8.r	.	8a\	.	8a\	.	8a\	.
.	.	.	.	.	.	.	.	.	8bn\J	.	8bn\J	.	8bn\J	.
16F\	.	.	16F\	.	16F\	.	16a\	.	.	.	.	.	.	.
8.G\L	.	.	8.G\L	.	8.G\L	.	8.b-\L	.	4cc\	.	4cc\	.	4cc\	.
16A\Jk	.	.	16A\Jk	.	16A\Jk	.	16dd\Jk	.	.	.	.	.	.	.
=11	=11	=11	=11	=11	=11	=11	=11	=11	=11	=11	=11	=11	=11	=11
4D\	.	2.r	4D\	.	4D\	.	4b-\	.	4ff\	.	4ff\	.	4ff\	.
8.r	.	.	8.r	.	8.r	.	8.r	.	8r	.	8r	.	8r	.
.	.	.	.	.	.	.	.	.	16ff\LL	.	16ff\LL	.	16ff\LL	.
16BB-/	.	.	16BB-/	.	16BB-/	.	16d\	.	16ee\JJ	.	16ee\JJ	.	16ee\JJ	.
8.C\L	.	.	8.C\L	.	8.C\L	.	8.e\L	.	16dd\LL	.	16dd\LL	.	16dd\LL	.
.	.	.	.	.	.	.	.	.	16cc\	.	16cc\	.	16cc\	.
.	.	.	.	.	.	.	.	.	16b-\	.	16b-\	.	16b-\	.
16D\Jk	.	.	16D\Jk	.	16D\Jk	.	16f\Jk	.	16a\JJ	.	16a\JJ	.	16a\JJ	.
=12	=12	=12	=12	=12	=12	=12	=12	=12	=12	=12	=12	=12	=12	=12
4E\	.	2.r	4E\	.	4E\	.	4c#\	.	8g/L	.	8g/L	.	8g/L	.
.	.	.	.	.	.	.	.	.	8e/	.	8e/	.	8e/	.
8.r	.	.	8.r	.	8.r	.	8.r	.	8g/	.	8g/	.	8g/	.
.	.	.	.	.	.	.	.	.	8a/J	.	8a/J	.	8a/J	.
16E\	.	.	16E\	.	16E\	.	16g\	.	.	.	.	.	.	.
8.F\L	.	.	8.F\L	.	8.F\L	.	8.a\L	.	4b-\	.	4b-\	.	4b-\	.
16G\Jk	.	.	16G\Jk	.	16G\Jk	.	16b-\Jk	.	.	.	.	.	.	.
=13	=13	=13	=13	=13	=13	=13	=13	=13	=13	=13	=13	=13	=13	=13
4C#/	.	2.r	4C#/	.	4C#/	.	4a\	.	4ee\	.	4ee\	.	4ee\	.
8.r	.	.	8.r	.	8.r	.	8.r	.	8r	.	8r	.	8r	.
.	.	.	.	.	.	.	.	.	16ee\LL	.	16ee\LL	.	16ee\LL	.
16AA/	.	.	16AA/	.	16AA/	.	16c#\	.	16dd\JJ	.	16dd\JJ	.	16dd\JJ	.
8.BBn/L	.	.	8.BBn/L	.	8.BBn/L	.	8.d\L	.	16cc#\LL	.	16cc#\LL	.	16cc#\LL	.
.	.	.	.	.	.	.	.	.	16bn\	.	16bn\	.	16bn\	.
.	.	.	.	.	.	.	.	.	16a\	.	16a\	.	16a\	.
16C#/Jk	.	.	16C#/Jk	.	16C#/Jk	.	16e\Jk	.	16g\JJ	.	16g\JJ	.	16g\JJ	.
=14	=14	=14	=14	=14	=14	=14	=14	=14	=14	=14	=14	=14	=14	=14
8D\L	.	2.r	8D\L	.	8D\L	.	8A\L	.	8f/L	.	8f/L	.	8f/L	.
8A\	.	.	8A\	.	8A\	.	8c#\	.	8e/J	.	8e/J	.	8e/J	.
8F\	.	.	8F\	.	8F\	.	8d\	.	8r	.	8r	.	8r	.
8D\	.	.	8D\	.	8D\	.	8f\	.	8aa\	.	8aa\	.	8aa\	.
8d\	.	.	8d\	.	8d\	.	8d\	.	8bbn\L	.	8bbn\L	.	8bbn\L	.
8e\J	.	.	8e\J	.	8e\J	.	8bn\J	.	8gg#\J	.	8gg#\J	.	8gg#\J	.
=15	=15	=15	=15	=15	=15	=15	=15	=15	=15	=15	=15	=15	=15	=15
8c#\L	.	2.r	8c#\L	.	8c#\L	.	8e\L	.	8aa\L	.	8aa\L	.	8aa\L	.
8A\	.	.	8A\	.	8A\	.	8e\	.	8cc#\	.	8cc#\	.	8cc#\	.
8F\	.	.	8F\	.	8F\	.	8a\	.	8dd\	.	8dd\	.	8dd\	.
8D\	.	.	8D\	.	8D\	.	8f\	.	8aa\	.	8aa\	.	8aa\	.
8d\	.	.	8d\	.	8d\	.	8d\	.	8bbn\	.	8bbn\	.	8bbn\	.
8e\J	.	.	8e\J	.	8e\J	.	8bn\J	.	8gg#\J	.	8gg#\J	.	8gg#\J	.
=16	=16	=16	=16	=16	=16	=16	=16	=16	=16	=16	=16	=16	=16	=16
8c#\L	.	2.r	8c#\L	.	8c#\L	.	8e\L	.	8aa\L	.	8aa\L	.	8aa\L	.
8A\	.	.	8A\	.	8A\	.	8e\	.	8cc#\	.	8cc#\	.	8cc#\	.
8F\	.	.	8F\	.	8F\	.	8a\	.	8dd\	.	8dd\	.	8dd\	.
8D\	.	.	8D\	.	8D\	.	8f\	.	8a\	.	8a\	.	8a\	.
8F\	.	.	8F\	.	8F\	.	8a\	.	8dd\	.	8dd\	.	8dd\	.
8D\J	.	.	8D\J	.	8D\J	.	8f\J	.	8a\J	.	8a\J	.	8a\J	.
=17	=17	=17	=17	=17	=17	=17	=17	=17	=17	=17	=17	=17	=17	=17
8C#\L	.	2.r	8C#\L	.	8C#\L	.	8e\L	.	8bn\L	.	8bn\L	.	8bn\L	.
8E\	.	.	8E\	.	8E\	.	8Bn\	.	8g#\	.	8g#\	.	8g#\	.
8F\	.	.	8F\	.	8F\	.	8d\	.	8a\	.	8a\	.	8a\	.
8E\	.	.	8E\	.	8E\	.	8g\	.	8cc#\	.	8cc#\	.	8cc#\	.
8F\	.	.	8F\	.	8F\	.	8a\	.	8dd\	.	8dd\	.	8dd\	.
8D\J	.	.	8D\J	.	8D\J	.	8f\J	.	8a\J	.	8a\J	.	8a\J	.
=18	=18	=18	=18	=18	=18	=18	=18	=18	=18	=18	=18	=18	=18	=18
8C#\L	.	2.r	8C#\L	.	8C#\L	.	8e\L	.	8bn/L	.	8bn/L	.	8bn/L	.
8E\	.	.	8E\	.	8E\	.	8Bn\	.	8g#/J	.	8g#/J	.	8g#/J	.
8F\	.	.	8F\	.	8F\	.	8d\	.	4a/	.	4a/	.	4a/	.
8D\	.	.	8D\	.	8D\	.	8f\	.	.	.	.	.	.	.
8A\	.	.	8A\	.	8A\	.	8e\	.	4r	.	4r	.	4r	.
8F\J	.	.	8F\J	.	8F\J	.	8a\J	.	.	.	.	.	.	.
=19	=19	=19	=19	=19	=19	=19	=19	=19	=19	=19	=19	=19	=19	=19
4D\	.	2.r	4D\	.	4D\	.	4f\	.	4dd\	.	4dd\	.	4dd\	.
4r	.	.	4r	.	4r	.	4r	.	8r	.	8r	.	8r	.
.	.	.	.	.	.	.	.	.	16b-/LL	.	16b-/LL	.	16b-/LL	.
.	.	.	.	.	.	.	.	.	16a/JJ	.	16a/JJ	.	16a/JJ	.
4r	.	.	4r	.	4r	.	4r	.	16g/LL	.	16g/LL	.	16g/LL	.
.	.	.	.	.	.	.	.	.	16f/	.	16f/	.	16f/	.
.	.	.	.	.	.	.	.	.	16e/	.	16e/	.	16e/	.
.	.	.	.	.	.	.	.	.	16d/JJ	.	16d/JJ	.	16d/JJ	.
=20	=20	=20	=20	=20	=20	=20	=20	=20	=20	=20	=20	=20	=20	=20
4AA/	.	2.r	4AA/	.	4AA/	.	4A/	.	4A/	.	4A/	.	4A/	.
4r	.	.	4r	.	4r	.	4r	.	8r	.	8r	.	8r	.
.	.	.	.	.	.	.	.	.	16b-/LL	.	16b-/LL	.	16b-/LL	.
.	.	.	.	.	.	.	.	.	16a/JJ	.	16a/JJ	.	16a/JJ	.
4r	.	.	4r	.	4r	.	4r	.	16g/LL	.	16g/LL	.	16g/LL	.
.	.	.	.	.	.	.	.	.	16f/	.	16f/	.	16f/	.
.	.	.	.	.	.	.	.	.	16e/	.	16e/	.	16e/	.
.	.	.	.	.	.	.	.	.	16d/JJ	.	16d/JJ	.	16d/JJ	.
=21	=21	=21	=21	=21	=21	=21	=21	=21	=21	=21	=21	=21	=21	=21
4GG/	.	2.r	4GG/	.	4GG/	.	4G/	.	4G/	.	4G/	.	4G/	.
2AA/	.	.	2AA/	.	2AA/	.	2A/	.	2A/	.	2A/	.	2A/	.
=22	=22	=22	=22	=22	=22	=22	=22	=22	=22	=22	=22	=22	=22	=22
*	*	*	*	*	*	*	*	*	*	*	*	*	*^	*
4D\	.	2.r	4D\	.	4D\	.	4d\	.	4d/	.	4d/	.	4.ff/	8d\ 8a\	.
.	.	.	.	.	.	.	.	.	.	.	.	.	.	8r	.
8.r	.	.	4r	.	8.r	.	4r	.	4r	.	4r	.	.	2r	.
.	.	.	.	.	.	.	.	.	.	.	.	.	8ee/	.	.
16E\	.	.	.	.	16E\	.	.	.	.	.	.	.	.	.	.
8.F\L	.	.	4r	.	8.F\L	.	4r	.	4r	.	4r	.	4dd/	.	.
16G\Jk	.	.	.	.	16G\Jk	.	.	.	.	.	.	.	.	.	.
=23	=23	=23	=23	=23	=23	=23	=23	=23	=23	=23	=23	=23	=23	=23	=23
4A\	.	2.r	2.r	.	4A\	.	2.r	.	2.r	.	2.r	.	4.ee/	8a\ 8cc#\	.
.	.	.	.	.	.	.	.	.	.	.	.	.	.	8r	.
8.r	.	.	.	.	8.r	.	.	.	.	.	.	.	.	2r	.
.	.	.	.	.	.	.	.	.	.	.	.	.	8bn/	.	.
16G\	.	.	.	.	16G\	.	.	.	.	.	.	.	.	.	.
8.A\L	.	.	.	.	8.A\L	.	.	.	.	.	.	.	4a/	.	.
16B-\Jk	.	.	.	.	16B-\Jk	.	.	.	.	.	.	.	.	.	.
=24	=24	=24	=24	=24	=24	=24	=24	=24	=24	=24	=24	=24	=24	=24	=24
4C#/	.	2.r	2.r	.	4C#/	.	2.r	.	2.r	.	2.r	.	4.gg/	8e\ 8cc#\	.
.	.	.	.	.	.	.	.	.	.	.	.	.	.	8r	.
8.r	.	.	.	.	8.r	.	.	.	.	.	.	.	.	2r	.
.	.	.	.	.	.	.	.	.	.	.	.	.	8ff/	.	.
16AA\	.	.	.	.	16AA/	.	.	.	.	.	.	.	.	.	.
8.BBn\L	.	.	.	.	8.BBn/L	.	.	.	.	.	.	.	4ee/	.	.
16C#\Jk	.	.	.	.	16C#/Jk	.	.	.	.	.	.	.	.	.	.
=25	=25	=25	=25	=25	=25	=25	=25	=25	=25	=25	=25	=25	=25	=25	=25
4D\	.	2.r	2.r	.	4D\	.	2.r	.	2.r	.	2.r	.	4.ff/	8d\ 8a\	.
.	.	.	.	.	.	.	.	.	.	.	.	.	.	8r	.
8.r	.	.	.	.	8.r	.	.	.	.	.	.	.	.	2r	.
.	.	.	.	.	.	.	.	.	.	.	.	.	8ee/	.	.
16E\	.	.	.	.	16E\	.	.	.	.	.	.	.	.	.	.
8.F\L	.	.	.	.	8.F\L	.	.	.	.	.	.	.	4dd/	.	.
16G\Jk	.	.	.	.	16G\Jk	.	.	.	.	.	.	.	.	.	.
=26	=26	=26	=26	=26	=26	=26	=26	=26	=26	=26	=26	=26	=26	=26	=26
4A\	.	2.r	2.r	.	4A\	.	2.r	.	2.r	.	2.r	.	4.ff/	8d\ 8a\	.
.	.	.	.	.	.	.	.	.	.	.	.	.	.	8r	.
8.r	.	.	.	.	8.r	.	.	.	.	.	.	.	.	2r	.
.	.	.	.	.	.	.	.	.	.	.	.	.	8ee/	.	.
16G\	.	.	.	.	16G\	.	.	.	.	.	.	.	.	.	.
8.A\L	.	.	.	.	8.A\L	.	.	.	.	.	.	.	4dd/	.	.
16B-\Jk	.	.	.	.	16B-\Jk	.	.	.	.	.	.	.	.	.	.
=27	=27	=27	=27	=27	=27	=27	=27	=27	=27	=27	=27	=27	=27	=27	=27
4E\	.	2.r	2.r	.	4E\	.	2.r	.	2.r	.	2.r	.	4.cc/	8G\ 8e\	.
.	.	.	.	.	.	.	.	.	.	.	.	.	.	8r	.
8.r	.	.	.	.	8.r	.	.	.	.	.	.	.	.	2r	.
.	.	.	.	.	.	.	.	.	.	.	.	.	8b-/	.	.
16E\	.	.	.	.	16E\	.	.	.	.	.	.	.	.	.	.
8.F\L	.	.	.	.	8.F\L	.	.	.	.	.	.	.	4a/	.	.
16G\Jk	.	.	.	.	16G\Jk	.	.	.	.	.	.	.	.	.	.
=28	=28	=28	=28	=28	=28	=28	=28	=28	=28	=28	=28	=28	=28	=28	=28
4C/	.	2.r	2.r	.	4C/	.	2.r	.	2.r	.	2.r	.	4.bb-/	8e\ 8cc\	.
.	.	.	.	.	.	.	.	.	.	.	.	.	.	8r	.
8.r	.	.	.	.	8.r	.	.	.	.	.	.	.	.	2r	.
.	.	.	.	.	.	.	.	.	.	.	.	.	8aa/	.	.
16C/	.	.	.	.	16C/	.	.	.	.	.	.	.	.	.	.
8.D\L	.	.	.	.	8.D\L	.	.	.	.	.	.	.	4gg/	.	.
16E\Jk	.	.	.	.	16E\Jk	.	.	.	.	.	.	.	.	.	.
=29	=29	=29	=29	=29	=29	=29	=29	=29	=29	=29	=29	=29	=29	=29	=29
8.F\L	.	2.r	2.r	.	8.F\L	.	2.r	.	2.r	.	2.r	.	4aa/	8f\ 8cc\	.
.	.	.	.	.	.	.	.	.	.	.	.	.	.	8r	.
16E\k	.	.	.	.	16E\k	.	.	.	.	.	.	.	.	.	.
8.F\	.	.	.	.	8.F\	.	.	.	.	.	.	.	4r	2r	.
16G\k	.	.	.	.	16G\k	.	.	.	.	.	.	.	.	.	.
8.A\	.	.	.	.	8.A\	.	.	.	.	.	.	.	4r	.	.
16G\Jk	.	.	.	.	16G\Jk	.	.	.	.	.	.	.	.	.	.
=30	=30	=30	=30	=30	=30	=30	=30	=30	=30	=30	=30	=30	=30	=30	=30
4F\	.	2.r	2.r	.	4F\	.	2.r	.	2.r	.	2.r	.	4.ff/	8f\ 8cc\	.
.	.	.	.	.	.	.	.	.	.	.	.	.	.	8r	.
8.r	.	.	.	.	8.r	.	.	.	.	.	.	.	.	2r	.
.	.	.	.	.	.	.	.	.	.	.	.	.	8gg/	.	.
16E\	.	.	.	.	16E\	.	.	.	.	.	.	.	.	.	.
8.F\L	.	.	.	.	8.F\L	.	.	.	.	.	.	.	4aa/	.	.
16G\Jk	.	.	.	.	16G\Jk	.	.	.	.	.	.	.	.	.	.
=31	=31	=31	=31	=31	=31	=31	=31	=31	=31	=31	=31	=31	=31	=31	=31
4BB-/	.	2.r	2.r	.	4BB-/	.	2.r	.	2.r	.	2.r	.	4.dd/	8B-\ 8f\	.
.	.	.	.	.	.	.	.	.	.	.	.	.	.	8r	.
8.r	.	.	.	.	8.r	.	.	.	.	.	.	.	.	2r	.
.	.	.	.	.	.	.	.	.	.	.	.	.	8ee/	.	.
16C/	.	.	.	.	16C/	.	.	.	.	.	.	.	.	.	.
8.D\L	.	.	.	.	8.D\L	.	.	.	.	.	.	.	4ff/	.	.
16E\Jk	.	.	.	.	16E\Jk	.	.	.	.	.	.	.	.	.	.
=32	=32	=32	=32	=32	=32	=32	=32	=32	=32	=32	=32	=32	=32	=32	=32
4F\	.	2.r	2.r	.	4F\	.	2.r	.	2.r	.	2.r	.	4f/	4A\	.
4BB-/	.	.	.	.	4BB-/	.	.	.	.	.	.	.	4f/	4B-\	.
4C/	.	.	.	.	4C/	.	.	.	.	.	.	.	4e/	4c\	.
=33	=33	=33	=33	=33	=33	=33	=33	=33	=33	=33	=33	=33	=33	=33	=33
8.F\L	f	2.r	8.F\L	.	8.F\L	f	8.f\L	f	8.f\L	f	8.f\L	f	4a/	8c\ 8f\	.
.	.	.	.	.	.	.	.	.	.	.	.	.	.	8r	.
16d\k	.	.	16d\k	.	16d\k	.	16dd\k	.	16dd\k	.	16dd\k	.	.	.	.
8.c\	.	.	8.c\	.	8.c\	.	8.cc\	.	8.cc\	.	8.cc\	.	4r	2r	.
16B-\k	.	.	16B-\k	.	16B-\k	.	16b-\K	.	16b-\k	.	16b-\k	.	.	.	.
8.A\	.	.	8.A\	.	8.A\	.	8.a\	.	8.a\	.	8.a\	.	4r	.	.
16G\Jk	.	.	16G\Jk	.	16G\Jk	.	16g\Jk	.	16g\Jk	.	16g\Jk	.	.	.	.
*	*	*	*	*	*	*	*	*	*	*	*	*	*v	*v	*
=34	=34	=34	=34	=34	=34	=34	=34	=34	=34	=34	=34	=34	=34	=34
4F\	.	2.r	4F\	.	4F\	.	4f\	.	4f/	.	4f/	.	16a/LL	.
.	.	.	.	.	.	.	.	.	.	.	.	.	16f/	.
.	.	.	.	.	.	.	.	.	.	.	.	.	16e/	.
.	.	.	.	.	.	.	.	.	.	.	.	.	16f/JJ	.
[4F\	.	.	4r	.	[4F\	.	4r	.	4r	.	4r	.	16a/LL	.
.	.	.	.	.	.	.	.	.	.	.	.	.	16f/	.
.	.	.	.	.	.	.	.	.	.	.	.	.	16e/	.
.	.	.	.	.	.	.	.	.	.	.	.	.	16f/JJ	.
8.F\L]	.	.	4r	.	8.F\L]	.	4r	.	4r	.	4r	.	16a\LL	.
.	.	.	.	.	.	.	.	.	.	.	.	.	16cc\	.
.	.	.	.	.	.	.	.	.	.	.	.	.	16bn\	.
16F\Jk	.	.	.	.	16F\Jk	.	.	.	.	.	.	.	16dd\JJ	.
=35	=35	=35	=35	=35	=35	=35	=35	=35	=35	=35	=35	=35	=35	=35
8.E\L	.	2.r	2.r	.	(8.E\L	.	2.r	.	2.r	.	2.r	.	4cc\	.
16D\k	.	.	.	.	16D\k)	.	.	.	.	.	.	.	.	.
8.C\	.	.	.	.	8.C\	.	.	.	.	.	.	.	[4cc\	.
16D\k	.	.	.	.	16D\k	.	.	.	.	.	.	.	.	.
8.E\	.	.	.	.	8.E\	.	.	.	.	.	.	.	16cc\LL]	.
.	.	.	.	.	.	.	.	.	.	.	.	.	16bn\	.
.	.	.	.	.	.	.	.	.	.	.	.	.	(16cc\	.
16C\Jk	.	.	.	.	16C\Jk	.	.	.	.	.	.	.	32dd\L	.
.	.	.	.	.	.	.	.	.	.	.	.	.	32ee\JJJ)	.
=36	=36	=36	=36	=36	=36	=36	=36	=36	=36	=36	=36	=36	=36	=36
4A\	.	2.r	2.r	.	4A\	.	2.r	.	2.r	.	2.r	.	16cc#/LL	.
.	.	.	.	.	.	.	.	.	.	.	.	.	16a/	.
.	.	.	.	.	.	.	.	.	.	.	.	.	16g/	.
.	.	.	.	.	.	.	.	.	.	.	.	.	16a/JJ	.
[4A\	.	.	.	.	[4A\	.	.	.	.	.	.	.	16cc#/LL	.
.	.	.	.	.	.	.	.	.	.	.	.	.	16a/	.
.	.	.	.	.	.	.	.	.	.	.	.	.	16g/	.
.	.	.	.	.	.	.	.	.	.	.	.	.	16a/JJ	.
8.A\L]	.	.	.	.	8.A\L]	.	.	.	.	.	.	.	16cc#\LL	.
.	.	.	.	.	.	.	.	.	.	.	.	.	16ee\	.
.	.	.	.	.	.	.	.	.	.	.	.	.	16dd\	.
16A\Jk	.	.	.	.	16A\Jk	.	.	.	.	.	.	.	16cc#\JJ	.
=37	=37	=37	=37	=37	=37	=37	=37	=37	=37	=37	=37	=37	=37	=37
8F\L	.	2.r	2.r	.	8F\L	.	2.r	.	2.r	.	2.r	.	8dd\L	.
8D\J	.	.	.	.	8D\J	.	.	.	.	.	.	.	16ee\L	.
.	.	.	.	.	.	.	.	.	.	.	.	.	16ff\JJ	.
4BB-/	.	.	.	.	4BB-/	.	.	.	.	.	.	.	8gg\L	.
.	.	.	.	.	.	.	.	.	.	.	.	.	16gg\L	.
.	.	.	.	.	.	.	.	.	.	.	.	.	16aa\JJ	.
4GG/	.	.	.	.	4GG/	.	.	.	.	.	.	.	8bb-\L	.
.	.	.	.	.	.	.	.	.	.	.	.	.	8dd\J	.
=38	=38	=38	=38	=38	=38	=38	=38	=38	=38	=38	=38	=38	=38	=38
4AA/	.	2.r	2.r	.	4AA/	.	2.r	.	2.r	.	2.r	.	8cc#\L	.
.	.	.	.	.	.	.	.	.	.	.	.	.	8a\J	.
4A\	.	.	.	.	4A\	.	.	.	.	.	.	.	8cc#\L	.
.	.	.	.	.	.	.	.	.	.	.	.	.	8gg#\J	.
4F\	.	.	.	.	4F\	.	.	.	.	.	.	.	4aa\	.
=39	=39	=39	=39	=39	=39	=39	=39	=39	=39	=39	=39	=39	=39	=39
4D\	.	2.r	2.r	.	4D\	.	4f\	.	4a/	.	4dd\	.	16r	.
.	.	.	.	.	.	.	.	.	.	.	.	.	16ddd\LL	.
.	.	.	.	.	.	.	.	.	.	.	.	.	16aa\	.
.	.	.	.	.	.	.	.	.	.	.	.	.	16ddd\JJ	.
4r	.	.	.	.	4r	.	4f\	.	4a/	.	4dd\	.	16ff\LL	.
.	.	.	.	.	.	.	.	.	.	.	.	.	16ddd\	.
.	.	.	.	.	.	.	.	.	.	.	.	.	16aa\	.
.	.	.	.	.	.	.	.	.	.	.	.	.	16ddd\JJ	.
4r	.	.	.	.	4r	.	4f#\	.	4dd\	.	4dd\	.	16dd\LL	.
.	.	.	.	.	.	.	.	.	.	.	.	.	16ccc\	.
.	.	.	.	.	.	.	.	.	.	.	.	.	16bb-\	.
.	.	.	.	.	.	.	.	.	.	.	.	.	16aa\JJ	.
=40	=40	=40	=40	=40	=40	=40	=40	=40	=40	=40	=40	=40	=40	=40
2.r	.	2.r	2.r	.	2.r	.	4g\	.	4b-\	.	4dd\	.	16bb-\LL	.
.	.	.	.	.	.	.	.	.	.	.	.	.	16gg\	.
.	.	.	.	.	.	.	.	.	.	.	.	.	16dd\	.
.	.	.	.	.	.	.	.	.	.	.	.	.	16gg\JJ	.
.	.	.	.	.	.	.	4g\	.	4b-\	.	4dd\	.	16b-\LL	.
.	.	.	.	.	.	.	.	.	.	.	.	.	16gg\	.
.	.	.	.	.	.	.	.	.	.	.	.	.	16dd\	.
.	.	.	.	.	.	.	.	.	.	.	.	.	16gg\JJ	.
.	.	.	.	.	.	.	4Bn/	.	4g/	.	4dd\	.	16g\LL	.
.	.	.	.	.	.	.	.	.	.	.	.	.	16ff\	.
.	.	.	.	.	.	.	.	.	.	.	.	.	16ee\	.
.	.	.	.	.	.	.	.	.	.	.	.	.	16dd\JJ	.
=41	=41	=41	=41	=41	=41	=41	=41	=41	=41	=41	=41	=41	=41	=41
2.r	.	2.r	2.r	.	2.r	.	4c\	.	4g/	.	4ee\	.	16ee\LL	.
.	.	.	.	.	.	.	.	.	.	.	.	.	16ccc\	.
.	.	.	.	.	.	.	.	.	.	.	.	.	16gg\	.
.	.	.	.	.	.	.	.	.	.	.	.	.	16ccc\JJ	.
.	.	.	.	.	.	.	4c\	.	4g/	.	4ee\	.	16ee\LL	.
.	.	.	.	.	.	.	.	.	.	.	.	.	16ccc\	.
.	.	.	.	.	.	.	.	.	.	.	.	.	16gg\	.
.	.	.	.	.	.	.	.	.	.	.	.	.	16ccc\JJ	.
.	.	.	.	.	.	.	4e\	.	4cc\	.	4ee\	.	16cc\LL	.
.	.	.	.	.	.	.	.	.	.	.	.	.	16bb-\	.
.	.	.	.	.	.	.	.	.	.	.	.	.	16aa\	.
.	.	.	.	.	.	.	.	.	.	.	.	.	16gg\JJ	.
=42	=42	=42	=42	=42	=42	=42	=42	=42	=42	=42	=42	=42	=42	=42
2.r	.	2.r	2.r	.	2.r	.	4f\	.	4a/	.	4cc\	.	16aa\LL	.
.	.	.	.	.	.	.	.	.	.	.	.	.	16ff\	.
.	.	.	.	.	.	.	.	.	.	.	.	.	16cc\	.
.	.	.	.	.	.	.	.	.	.	.	.	.	16ff\JJ	.
.	.	.	.	.	.	.	4f\	.	4a/	.	4cc\	.	16a\LL	.
.	.	.	.	.	.	.	.	.	.	.	.	.	16ff\	.
.	.	.	.	.	.	.	.	.	.	.	.	.	16cc\	.
.	.	.	.	.	.	.	.	.	.	.	.	.	16ff\JJ	.
.	.	.	.	.	.	.	4A/	.	4a/	.	4cc\	.	16f\LL	.
.	.	.	.	.	.	.	.	.	.	.	.	.	16ee-\	.
.	.	.	.	.	.	.	.	.	.	.	.	.	16dd\	.
.	.	.	.	.	.	.	.	.	.	.	.	.	16cc\JJ	.
=43	=43	=43	=43	=43	=43	=43	=43	=43	=43	=43	=43	=43	=43	=43
2.r	.	2.r	2.r	.	2.r	.	4B-/	.	4f/	.	4dd\	.	16dd\LL	.
.	.	.	.	.	.	.	.	.	.	.	.	.	16bb-\	.
.	.	.	.	.	.	.	.	.	.	.	.	.	16ff\	.
.	.	.	.	.	.	.	.	.	.	.	.	.	16bb-\JJ	.
.	.	.	.	.	.	.	4B-/	.	4f/	.	4dd\	.	16dd\LL	.
.	.	.	.	.	.	.	.	.	.	.	.	.	16bb-\	.
.	.	.	.	.	.	.	.	.	.	.	.	.	16ff\	.
.	.	.	.	.	.	.	.	.	.	.	.	.	16bb-\JJ	.
.	.	.	.	.	.	.	4B-/	.	4f/	.	4dd\	.	16b-\LL	.
.	.	.	.	.	.	.	.	.	.	.	.	.	16bb-\	.
.	.	.	.	.	.	.	.	.	.	.	.	.	16ff\	.
.	.	.	.	.	.	.	.	.	.	.	.	.	16bb-\JJ	.
=44	=44	=44	=44	=44	=44	=44	=44	=44	=44	=44	=44	=44	=44	=44
2.r	.	2.r	2.r	.	2.r	.	4A/	.	4g/	.	4cc#\	.	16cc#\LL	.
.	.	.	.	.	.	.	.	.	.	.	.	.	16ee\	.
.	.	.	.	.	.	.	.	.	.	.	.	.	16cc#\	.
.	.	.	.	.	.	.	.	.	.	.	.	.	16ee\JJ	.
.	.	.	.	.	.	.	4A/	.	4g/	.	4cc#\	.	16g\LL	.
.	.	.	.	.	.	.	.	.	.	.	.	.	16ee\	.
.	.	.	.	.	.	.	.	.	.	.	.	.	16cc#\	.
.	.	.	.	.	.	.	.	.	.	.	.	.	16ee\JJ	.
.	.	.	.	.	.	.	4A/	.	4g/	.	4cc#\	.	16e\LL	.
.	.	.	.	.	.	.	.	.	.	.	.	.	16ee\	.
.	.	.	.	.	.	.	.	.	.	.	.	.	16cc#\	.
.	.	.	.	.	.	.	.	.	.	.	.	.	16ee\JJ	.
=45	=45	=45	=45	=45	=45	=45	=45	=45	=45	=45	=45	=45	=45	=45
8r	.	2.r	8r	.	8r	.	8A\L	.	8e\L	.	8cc#\L	.	8A/	.
8A\	f	.	8A\	f	8A\	f	8e\	f	8cc#\	f	8cc#\	f	8cc#\L	f
8G\L	.	.	8G\L	.	8G\L	.	8a\	.	8ee\	.	8ee\	.	8ee\	.
8F\	.	.	8F\	.	8F\	.	8a\	.	8aa\	.	8aa\	.	8aa\	.
8d\	.	.	8d\	.	8d\	.	8f\	.	8bbn\	.	8bbn\	.	8bbn\	.
8e\J	.	.	8e\J	.	8e\J	.	8bn\J	.	8gg#\J	.	8gg#\J	.	8gg#\J	.
=46	=46	=46	=46	=46	=46	=46	=46	=46	=46	=46	=46	=46	=46	=46
8c#\L	.	2.r	8c#\L	.	8c#\L	.	8e\L	.	8aa\L	.	8aa\L	.	8aa\L	.
8A\	.	.	8A\	.	8A\	.	8e\	.	8cc#\	.	8cc#\	.	8cc#\	.
8F\	.	.	8F\	.	8F\	.	8a\	.	8dd\	.	8dd\	.	8dd\	.
8D\	.	.	8D\	.	8D\	.	8f\	.	8aa\	.	8aa\	.	8aa\	.
8d\	.	.	8d\	.	8d\	.	8f\	.	8bbn\	.	8bbn\	.	8bbn\	.
8e\J	.	.	8e\J	.	8e\J	.	8bn\J	.	8gg#\J	.	8gg#\J	.	8gg#\J	.
=47	=47	=47	=47	=47	=47	=47	=47	=47	=47	=47	=47	=47	=47	=47
8c#\L	.	2.r	8c#\L	.	8c#\L	.	8e\L	.	8aa\L	.	8aa\L	.	8aa\L	.
8A\	.	.	8A\	.	8A\	.	8cc#\	.	8cc#\	.	8cc#\	.	8cc#\	.
8d\	.	.	8d\	.	8d\	.	8a\	.	8dd\	.	8dd\	.	8dd\	.
8G#\	.	.	8G#\	.	8G#\	.	8bn\	.	8ee\	.	8ee\	.	8ee\	.
8A\	.	.	8A\	.	8A\	.	8ccn\	.	8ff#\	.	8ff#\	.	8ff#\	.
8Bn\J	.	.	8Bn\J	.	8Bn\J	.	8f#\J	.	8dd#\J	.	8dd#\J	.	8dd#\J	.
=48	=48	=48	=48	=48	=48	=48	=48	=48	=48	=48	=48	=48	=48	=48
8G#\L	.	2.r	8G#\L	.	8G#\L	.	8bn\L	.	8ee\L	.	8ee\L	.	8ee\L	.
8E\	.	.	8E\	.	8E\	.	8Bn\	.	8g#\	.	8g#\	.	8g#\	.
8C\	.	.	8C\	.	8C\	.	8e\	.	8a\	.	8a\	.	8a\	.
8AA\	.	.	8AA\	.	8AA\	.	8c\	.	8ee\	.	8ee\	.	8ee\	.
8A\	.	.	8A\	.	8A\	.	8c\	.	8ff#\	.	8ff#\	.	8ff#\	.
8Bn\J	.	.	8Bn\J	.	8Bn\J	.	8f#\J	.	8dd#\J	.	8dd#\J	.	8dd#\J	.
=49	=49	=49	=49	=49	=49	=49	=49	=49	=49	=49	=49	=49	=49	=49
8G#\L	.	2.r	8G#\L	.	8G#\L	.	8Bn\L	.	8ee\L	.	8ee\L	.	8ee\L	.
8E\	.	.	8E\	.	8E\	.	8B\	.	8g#\J	.	8g#\J	.	8g#\J	.
8C\	.	.	8C\	.	8C\	.	8e\	.	4a/	.	4a/	.	4a/	.
8AA\	.	.	8AA\	.	8AA\	.	8c\	.	.	.	.	.	.	.
8D\	.	.	8D\	.	8D\	.	8fn\	.	4r	.	4r	.	4r	.
8BBn\J	.	.	8BBn\J	.	8BBn\J	.	8d\J	.	.	.	.	.	.	.
=50	=50	=50	=50	=50	=50	=50	=50	=50	=50	=50	=50	=50	=50	=50
4C/	.	2.r	4C/	.	4C/	.	4e\	.	4aa\	.	4aa\	.	4aa\	.
4r	.	.	4r	.	4r	.	4r	.	8r	.	8r	.	8r	.
.	.	.	.	.	.	.	.	.	16ff\LL	.	16ffn\LL	.	16ffn\LL	.
.	.	.	.	.	.	.	.	.	16ee\JJ	.	16ee\JJ	.	16ee\JJ	.
4r	.	.	4r	.	4r	.	4r	.	16dd\LL	.	16dd\LL	.	16dd\LL	.
.	.	.	.	.	.	.	.	.	16cc\	.	16cc\	.	16cc\	.
.	.	.	.	.	.	.	.	.	16bn\	.	16bn\	.	16bn\	.
.	.	.	.	.	.	.	.	.	16a\JJ	.	16a\JJ	.	16a\JJ	.
=51	=51	=51	=51	=51	=51	=51	=51	=51	=51	=51	=51	=51	=51	=51
4C/	.	2.r	4C/	.	4C/	.	4A/	.	4e/	.	4e/	.	4e/	.
4r	.	.	4r	.	4r	.	4r	.	8r	.	8r	.	8r	.
.	.	.	.	.	.	.	.	.	16ff\LL	.	16ff\LL	.	16ff\LL	.
.	.	.	.	.	.	.	.	.	16ee\JJ	.	16ee\JJ	.	16ee\JJ	.
4r	.	.	4r	.	4r	.	4r	.	16dd\LL	.	16dd\LL	.	16dd\LL	.
.	.	.	.	.	.	.	.	.	16cc\	.	16cc\	.	16cc\	.
.	.	.	.	.	.	.	.	.	16bn\	.	16bn\	.	16bn\	.
.	.	.	.	.	.	.	.	.	16a\JJ	.	16a\JJ	.	16a\JJ	.
=52	=52	=52	=52	=52	=52	=52	=52	=52	=52	=52	=52	=52	=52	=52
4D\	.	2.r	4D\	.	4D\	.	4d\	.	4d/	.	4d/	.	4d/	.
2E\	.	.	2E\	.	2E\	.	2e\	.	2e/	.	2e/	.	2e/	.
=53	=53	=53	=53	=53	=53	=53	=53	=53	=53	=53	=53	=53	=53	=53
4AA/	.	2.r	4AA/	.	4AA/	.	4A/	.	4A/	.	4A/	.	8A\L	.
.	.	.	.	.	.	.	.	.	.	.	.	.	8a\	.
4r	.	.	4r	.	4r	.	4r	.	4A/	p	4A/	p	8ee\	.
.	.	.	.	.	.	.	.	.	.	.	.	.	8a\	.
4r	.	.	4r	.	4r	.	4r	.	4A/	.	4A/	.	8aa\	.
.	.	.	.	.	.	.	.	.	.	.	.	.	8a\J	.
=54	=54	=54	=54	=54	=54	=54	=54	=54	=54	=54	=54	=54	=54	=54
2.r	.	2.r	2.r	.	2.r	.	2.r	.	4A/	.	4A/	.	8ccc\L	.
.	.	.	.	.	.	.	.	.	.	.	.	.	8a\	.
.	.	.	.	.	.	.	.	.	4A/	.	4A/	.	8aa\	.
.	.	.	.	.	.	.	.	.	.	.	.	.	8a\	.
.	.	.	.	.	.	.	.	.	4A/	.	4A/	.	8ccc\	.
.	.	.	.	.	.	.	.	.	.	.	.	.	8a\J	.
=55	=55	=55	=55	=55	=55	=55	=55	=55	=55	=55	=55	=55	=55	=55
2.r	.	2.r	2.r	.	2.r	.	2.r	.	4A/	.	4A/	.	8eee\L	.
.	.	.	.	.	.	.	.	.	.	.	.	.	8a\	.
.	.	.	.	.	.	.	.	.	4A/	.	4A/	.	8ccc\	.
.	.	.	.	.	.	.	.	.	.	.	.	.	8a\	.
.	.	.	.	.	.	.	.	.	4A/	.	4A/	.	8eee\	.
.	.	.	.	.	.	.	.	.	.	.	.	.	8a\J	.
=56	=56	=56	=56	=56	=56	=56	=56	=56	=56	=56	=56	=56	=56	=56
2.r	.	2.r	2.r	.	2.r	.	2.r	.	4A/	.	4A/	.	8aaa\L	.
.	.	.	.	.	.	.	.	.	.	.	.	.	8a\	.
.	.	.	.	.	.	.	.	.	4c#/	.	4c#/	.	8aaa\	.
.	.	.	.	.	.	.	.	.	.	.	.	.	8a\	.
.	.	.	.	.	.	.	.	.	4A/	.	4A/	.	8ggg\	.
.	.	.	.	.	.	.	.	.	.	.	.	.	8a\J	.
=57	=57	=57	=57	=57	=57	=57	=57	=57	=57	=57	=57	=57	=57	=57
2.r	.	2.r	2.r	.	2.r	.	2.r	.	4d/	.	4d/	.	8fff\L	.
.	.	.	.	.	.	.	.	.	.	.	.	.	8a\	.
.	.	.	.	.	.	.	.	.	4f#/	.	4f#/	.	8ddd\	.
.	.	.	.	.	.	.	.	.	.	.	.	.	8d\	.
.	.	.	.	.	.	.	.	.	4d/	.	4d/	.	8ccc\	.
.	.	.	.	.	.	.	.	.	.	.	.	.	8d\J	.
=58	=58	=58	=58	=58	=58	=58	=58	=58	=58	=58	=58	=58	=58	=58
2.r	.	2.r	2.r	.	2.r	.	2.r	.	4G/	.	4G/	.	8bbn\L	.
.	.	.	.	.	.	.	.	.	.	.	.	.	8d\	.
.	.	.	.	.	.	.	.	.	4Bn/	.	4Bn/	.	8ggg\	.
.	.	.	.	.	.	.	.	.	.	.	.	.	8gg\	.
.	.	.	.	.	.	.	.	.	4G/	.	4G/	.	8fff\	.
.	.	.	.	.	.	.	.	.	.	.	.	.	8gg\J	.
=59	=59	=59	=59	=59	=59	=59	=59	=59	=59	=59	=59	=59	=59	=59
2.r	.	2.r	2.r	.	2.r	.	2.r	.	4c/	.	4c/	.	8eee\L	.
.	.	.	.	.	.	.	.	.	.	.	.	.	8gg\	.
.	.	.	.	.	.	.	.	.	4e/	.	4e/	.	8ccc\	.
.	.	.	.	.	.	.	.	.	.	.	.	.	8cc\	.
.	.	.	.	.	.	.	.	.	4c/	.	4c/	.	8bb-\	.
.	.	.	.	.	.	.	.	.	.	.	.	.	8cc\J	.
=60	=60	=60	=60	=60	=60	=60	=60	=60	=60	=60	=60	=60	=60	=60
2.r	.	2.r	2.r	.	2.r	.	2.r	.	4f/	.	4f/	.	8aa\L	.
.	.	.	.	.	.	.	.	.	.	.	.	.	8cc\	.
.	.	.	.	.	.	.	.	.	4f/	.	4f/	.	8fff\	.
.	.	.	.	.	.	.	.	.	.	.	.	.	8ff\	.
.	.	.	.	.	.	.	.	.	4f/	.	4f/	.	8eee\	.
.	.	.	.	.	.	.	.	.	.	.	.	.	8ff\J	.
=61	=61	=61	=61	=61	=61	=61	=61	=61	=61	=61	=61	=61	=61	=61
2.r	.	2.r	2.r	.	2.r	.	2.r	.	4f/	.	4f/	.	8ddd\L	.
.	.	.	.	.	.	.	.	.	.	.	.	.	8ff\	.
.	.	.	.	.	.	.	.	.	4d/	.	4d/	.	8bb-\	.
.	.	.	.	.	.	.	.	.	.	.	.	.	8b-\	.
.	.	.	.	.	.	.	.	.	4d#/	.	4d#/	.	8aa\	.
.	.	.	.	.	.	.	.	.	.	.	.	.	8bn\J	.
=62	=62	=62	=62	=62	=62	=62	=62	=62	=62	=62	=62	=62	=62	=62
2.r	.	2.r	2.r	.	2.r	.	2.r	.	4e/	.	4e/	.	8gg#\L	.
.	.	.	.	.	.	.	.	.	.	.	.	.	8bn\	.
.	.	.	.	.	.	.	.	.	4e/	.	4e/	.	8eee\	.
.	.	.	.	.	.	.	.	.	.	.	.	.	8ee\	.
.	.	.	.	.	.	.	.	.	4e/	.	4e/	.	8ddd\	.
.	.	.	.	.	.	.	.	.	.	.	.	.	8ee\J	.
=63	=63	=63	=63	=63	=63	=63	=63	=63	=63	=63	=63	=63	=63	=63
2.r	.	2.r	2.r	.	2.r	.	2.r	.	4e/	.	4e/	.	8ccc\L	.
.	.	.	.	.	.	.	.	.	.	.	.	.	8ee\	.
.	.	.	.	.	.	.	.	.	4e/	.	4e/	.	8ddd\	.
.	.	.	.	.	.	.	.	.	.	.	.	.	8ee\	.
.	.	.	.	.	.	.	.	.	4e/	.	4e/	.	8ccc\	.
.	.	.	.	.	.	.	.	.	.	.	.	.	8ee\J	.
=64	=64	=64	=64	=64	=64	=64	=64	=64	=64	=64	=64	=64	=64	=64
2.r	.	2.r	2.r	.	2.r	.	2.r	.	4e/	.	4e/	.	8bbn\L	.
.	.	.	.	.	.	.	.	.	.	.	.	.	8ee\	.
.	.	.	.	.	.	.	.	.	4e/	.	4e/	.	8eee\	.
.	.	.	.	.	.	.	.	.	.	.	.	.	8ee\	.
.	.	.	.	.	.	.	.	.	4e/	.	4e/	.	8ddd\	.
.	.	.	.	.	.	.	.	.	.	.	.	.	8ee\J	.
=65	=65	=65	=65	=65	=65	=65	=65	=65	=65	=65	=65	=65	=65	=65
2.r	.	2.r	2.r	.	2.r	.	2.r	.	4e/	.	4e/	.	8ccc\L	.
.	.	.	.	.	.	.	.	.	.	.	.	.	8ee\	.
.	.	.	.	.	.	.	.	.	4e/	.	4e/	.	8ddd\	.
.	.	.	.	.	.	.	.	.	.	.	.	.	8ee\	.
.	.	.	.	.	.	.	.	.	4e/	.	4e/	.	8ccc\	.
.	.	.	.	.	.	.	.	.	.	.	.	.	8ee\J	.
=66	=66	=66	=66	=66	=66	=66	=66	=66	=66	=66	=66	=66	=66	=66
8.E\L	f	2.r	8.E\L	f	8.E\L	f	8.g#\L	f	4ee\	f	4ee\	f	4bbn\	.
16G#\k	.	.	16G#\k	.	16G#\k	.	16bn\k	.	.	.	.	.	.	.
8.A\	.	.	8.A\	.	8.A\	.	8.cc\	.	[4ee\	.	[4ee\	.	[4ee\	f
16Bn\k	.	.	16Bn\k	.	16Bn\k	.	16dd\k	.	.	.	.	.	.	.
8.c\	.	.	8.c\	.	8.c\	.	8.a\	.	8.ee\L]	.	8.ee\L]	.	8.ee\L]	.
16d\Jk	.	.	16d\Jk	.	16d\Jk	.	16a\Jk	.	16ff\Jk	.	16ff\Jk	.	16ff\Jk	.
=67	=67	=67	=67	=67	=67	=67	=67	=67	=67	=67	=67	=67	=67	=67
8.G#\L	.	2.r	8.G#\L	.	8.G#\L	.	8.bn\L	.	4dd\	.	4dd\	.	4dd\	.
16F#\k	.	.	16F#\k	.	16F#\k	.	16b\k	.	.	.	.	.	.	.
8.G#\	.	.	8.G#\	.	8.G#\	.	8.b\	.	[4dd\	.	[4dd\	.	[4dd\	.
16E\k	.	.	16E\k	.	16E\k	.	16g#\k	.	.	.	.	.	.	.
8.F#\	.	.	8.F#\	.	8.F#\	.	8.a\	.	8.dd\L]	.	8.dd\L]	.	8.dd\L]	.
16G#\Jk	.	.	16G#\Jk	.	16G#\Jk	.	16b\Jk	.	16ee\Jk	.	16ee\Jk	.	16ee\Jk	.
=68	=68	=68	=68	=68	=68	=68	=68	=68	=68	=68	=68	=68	=68	=68
8.A\L	.	2.r	8.A\L	.	8.A\L	.	4e\	.	4cc\	.	4cc\	.	4cc\	.
16G#\k	.	.	16G#\k	.	16G#\k	.	.	.	.	.	.	.	.	.
8.A\	.	.	8.A\	.	8.A\	.	[4e\	.	[4cc\	.	[4cc\	.	[4cc\	.
16G#\k	.	.	16G#\k	.	16G#\k	.	.	.	.	.	.	.	.	.
8.A\	.	.	8.A\	.	8.A\	.	8.e\L]	.	8.cc\L]	.	8.cc\L]	.	8.cc\L]	.
16D#\Jk	.	.	16D#\Jk	.	16D#\Jk	.	16f#\Jk	.	16ddn\Jk	.	16ddn\Jk	.	16ddn\Jk	.
=69	=69	=69	=69	=69	=69	=69	=69	=69	=69	=69	=69	=69	=69	=69
4E\	.	2.r	4E\	.	4E\	.	8G#\L	.	8bn\L	.	8bn\L	.	8bn\L	.
.	.	.	.	.	.	.	8G#\	.	8e\	.	8e\	.	8e\	.
4E\	.	.	4E\	.	4E\	.	8Bn\	.	8g#\	.	8g#\	.	8g#\	.
.	.	.	.	.	.	.	8e\	.	8b\	.	8b\	.	8b\	.
4D\	.	.	4D\	.	4D\	.	8g#\	.	8ee\	.	8ee\	.	8ee\	.
.	.	.	.	.	.	.	8e\J	.	8gg#\J	.	8gg#\J	.	8gg#\J	.
=70	=70	=70	=70	=70	=70	=70	=70	=70	=70	=70	=70	=70	=70	=70
4C/	.	2.r	4C/	.	4C/	.	4e\	.	4aa\	.	4aa\	.	4aa\	.
8.r	.	.	8.r	.	8.r	.	8.r	.	8r	.	8r	.	8r	.
.	.	.	.	.	.	.	.	.	16aa\LL	.	16aa\LL	.	16aa\LL	.
16D\	.	.	16D\	.	16D\	.	16fn\	.	16gg\JJ	.	16gg\JJ	.	16ggn\JJ	.
8.E\L	.	.	8.E\L	.	8.E\L	.	8.g\L	.	16ff\LL	.	16ff\LL	.	16ff\LL	.
.	.	.	.	.	.	.	.	.	16ee\	.	16ee\	.	16ee\	.
.	.	.	.	.	.	.	.	.	16dd\	.	16dd\	.	16dd\	.
16F\Jk	.	.	16F\Jk	.	16F\Jk	.	16a\Jk	.	16cc\JJ	.	16cc\JJ	.	16cc\JJ	.
=71	=71	=71	=71	=71	=71	=71	=71	=71	=71	=71	=71	=71	=71	=71
4GG#/	.	2.r	4GG#/	.	4GG#/	.	4e\	.	8bn/L	.	8bn/L	.	8bn/L	.
.	.	.	.	.	.	.	.	.	8g#/J	.	8g#/J	.	8g#/J	.
8.r	.	.	8.r	.	8.r	.	8.r	.	8b\L	.	8b\L	.	8b\L	.
.	.	.	.	.	.	.	.	.	8cc#\J	.	8cc#\J	.	8cc#\J	.
16G#\	.	.	16G#\	.	16G#\	.	16bn\	.	.	.	.	.	.	.
8.A\L	.	.	8.A\L	.	8.A\L	.	8.cc\L	.	4dd\	.	4dd\	.	4dd\	.
16Bn\Jk	.	.	16Bn\Jk	.	16Bn\Jk	.	16dd\Jk	.	.	.	.	.	.	.
=72	=72	=72	=72	=72	=72	=72	=72	=72	=72	=72	=72	=72	=72	=72
4E\	.	2.r	4E\	.	4E\	.	4bn\	.	4gg\	.	4gg\	.	4gg\	.
8.r	.	.	8.r	.	8.r	.	8.r	.	8r	.	8r	.	8r	.
.	.	.	.	.	.	.	.	.	16gg\LL	.	16gg\LL	.	16gg\LL	.
16C/	.	.	16C/	.	16C/	.	16e\	.	16ff\JJ	.	16ff\JJ	.	16ff\JJ	.
8.D\L	.	.	8.D\L	.	8.D\L	.	8.f#\L	.	16ee\LL	.	16ee\LL	.	16ee\LL	.
.	.	.	.	.	.	.	.	.	16dd\	.	16dd\	.	16dd\	.
.	.	.	.	.	.	.	.	.	16cc\	.	16cc\	.	16cc\	.
16E\Jk	.	.	16E\Jk	.	16E\Jk	.	16g#\Jk	.	16bn\JJ	.	16bn\JJ	.	16bn\JJ	.
=73	=73	=73	=73	=73	=73	=73	=73	=73	=73	=73	=73	=73	=73	=73
4F\	.	2.r	4F\	.	4F\	.	4a\	.	8a/L	.	8a/L	.	8a/L	.
.	.	.	.	.	.	.	.	.	8f/	.	8f/	.	8f/	.
8.r	.	.	8.r	.	8.r	.	8.r	.	8a/	.	8a/	.	8a/	.
.	.	.	.	.	.	.	.	.	8bn/J	.	8bn/J	.	8bn/J	.
16F\	.	.	16F\	.	16F\	.	16a\	.	.	.	.	.	.	.
8.G\L	.	.	8.G\L	.	8.G\L	.	8.b-\L	.	4cc\	.	4cc\	.	4cc\	.
16A\Jk	.	.	16A\Jk	.	16A\Jk	.	16cc\Jk	.	.	.	.	.	.	.
=74	=74	=74	=74	=74	=74	=74	=74	=74	=74	=74	=74	=74	=74	=74
4D\	.	2.r	4D\	.	4D\	.	4b-\	.	4ff\	.	4ff\	.	4ff\	.
8.r	.	.	8.r	.	8.r	.	8.r	.	8r	.	8r	.	8r	.
.	.	.	.	.	.	.	.	.	16ff\LL	.	16ff\LL	.	16ff\LL	.
16D\	.	.	16D\	.	16D\	.	16f\	.	16ee\JJ	.	16ee\JJ	.	16ee\JJ	.
8.E\L	.	.	8.E\L	.	8.E\L	.	8.g\L	.	16dd\LL	.	16dd\LL	.	16dd\LL	.
.	.	.	.	.	.	.	.	.	16cc\	.	16cc\	.	16cc\	.
.	.	.	.	.	.	.	.	.	16b-\	.	16b-\	.	16b-\	.
16F\Jk	.	.	16F\Jk	.	16F\Jk	.	16a\Jk	.	16a\JJ	.	16a\JJ	.	16a\JJ	.
=75	=75	=75	=75	=75	=75	=75	=75	=75	=75	=75	=75	=75	=75	=75
4C/	.	2.r	4C/	.	4C/	.	4e\	.	4b-\	.	4b-\	.	4b-\	.
8.r	.	.	8.r	.	8.r	.	8.r	.	8r	.	8r	.	8r	.
.	.	.	.	.	.	.	.	.	16gg\LL	.	16gg\LL	.	16gg\LL	.
16C/	.	.	16C/	.	16C/	.	16e\	.	16ff\JJ	.	16ff\JJ	.	16ff\JJ	.
8.D\L	.	.	8.D\L	.	8.D\L	.	8.f\L	.	16ee\LL	.	16ee\LL	.	16ee\LL	.
.	.	.	.	.	.	.	.	.	16dd\	.	16dd\	.	16dd\	.
.	.	.	.	.	.	.	.	.	16cc\	.	16cc\	.	16cc\	.
16E\Jk	.	.	16E\Jk	.	16E\Jk	.	16g\Jk	.	16b-\JJ	.	16b-\JJ	.	16b-\JJ	.
=76	=76	=76	=76	=76	=76	=76	=76	=76	=76	=76	=76	=76	=76	=76
4F\	.	2.r	4F\	.	4F\	.	4c\	.	4a/	.	4a/	.	4a/	.
8.r	.	.	8.r	.	8.r	.	8.r	.	8r	.	8r	.	8r	.
.	.	.	.	.	.	.	.	.	16ff\LL	.	16ff\LL	.	16ff\LL	.
16A\	.	.	16A\	.	16A\	.	16f\	.	16ee\JJ	.	16ee\JJ	.	16ee\JJ	.
8.G\L	.	.	8.G\L	.	8.G\L	.	8.g\L	.	16dd\LL	.	16dd\LL	.	16dd\LL	.
.	.	.	.	.	.	.	.	.	16cc\	.	16cc\	.	16cc\	.
.	.	.	.	.	.	.	.	.	16b-\	.	16b-\	.	16b-\	.
16F\Jk	.	.	16F\Jk	.	16F\Jk	.	16a\Jk	.	16a\JJ	.	16a\JJ	.	16a\JJ	.
=77	=77	=77	=77	=77	=77	=77	=77	=77	=77	=77	=77	=77	=77	=77
4BB-/	.	2.r	4BB-/	.	4BB-/	.	4B-/	.	4B-/	.	4B-/	.	4B-/	.
2C/	.	.	2C/	.	2C/	.	2c\	.	2c/	.	2c/	.	2c/	.
=78	=78	=78	=78	=78	=78	=78	=78	=78	=78	=78	=78	=78	=78	=78
*	*	*	*	*	*	*	*	*	*	*	*	*	*^	*
4FF/	.	2.r	4FF/	.	4FF/	.	4f\	.	4f/	.	4f/	.	4.ff/	8f\ 8cc\	.
.	.	.	.	.	.	.	.	.	.	.	.	.	.	8r	.
4r	.	.	4r	.	4r	.	4r	.	4r	.	4r	.	.	2r	.
.	.	.	.	.	.	.	.	.	.	.	.	.	8ee/	.	.
4r	.	.	4r	.	4r	.	4r	.	4r	.	4r	.	4dd/	.	.
*	*	*	*	*	*	*	*	*	*	*	*	*	*v	*v	*
=79	=79	=79	=79	=79	=79	=79	=79	=79	=79	=79	=79	=79	=79	=79
4C/	.	2.r	2.r	.	4C/	.	2.r	.	2.r	.	2.r	.	4.e/ 4.cc/	.
8.r	.	.	.	.	8.r	.	.	.	.	.	.	.	.	.
.	.	.	.	.	.	.	.	.	.	.	.	.	8b-/	.
16C/	.	.	.	.	16C/	.	.	.	.	.	.	.	.	.
8.F\L	.	.	.	.	8.F\L	.	.	.	.	.	.	.	4f/ 4a/	.
16G\Jk	.	.	.	.	16G\Jk	.	.	.	.	.	.	.	.	.
=80	=80	=80	=80	=80	=80	=80	=80	=80	=80	=80	=80	=80	=80	=80
*	*	*	*	*	*	*	*	*	*	*	*	*	*^	*
4C/	.	2.r	2.r	.	4C/	.	2.r	.	2.r	.	2.r	.	4.b-/	8G\ 8e\	.
.	.	.	.	.	.	.	.	.	.	.	.	.	.	8r	.
8.r	.	.	.	.	8.r	.	.	.	.	.	.	.	.	2r	.
.	.	.	.	.	.	.	.	.	.	.	.	.	8cc/	.	.
16C/	.	.	.	.	16C/	.	.	.	.	.	.	.	.	.	.
8.D\L	.	.	.	.	8.D\L	.	.	.	.	.	.	.	4b-/	.	.
16E\Jk	.	.	.	.	16E\Jk	.	.	.	.	.	.	.	.	.	.
=81	=81	=81	=81	=81	=81	=81	=81	=81	=81	=81	=81	=81	=81	=81	=81
4F\	.	2.r	2.r	.	4F\	.	2.r	.	2.r	.	2.r	.	4.a/	8c\ 8f\	.
.	.	.	.	.	.	.	.	.	.	.	.	.	.	8r	.
8.r	.	.	.	.	8.r	.	.	.	.	.	.	.	.	2r	.
.	.	.	.	.	.	.	.	.	.	.	.	.	8g/	.	.
16E\	.	.	.	.	16E\	.	.	.	.	.	.	.	.	.	.
8.F\L	.	.	.	.	8.F\L	.	.	.	.	.	.	.	4f/	.	.
16G\Jk	.	.	.	.	16G\Jk	.	.	.	.	.	.	.	.	.	.
=82	=82	=82	=82	=82	=82	=82	=82	=82	=82	=82	=82	=82	=82	=82	=82
4AA/	.	2.r	2.r	.	4AA/	.	2.r	.	2.r	.	2.r	.	4.ff/	8f\ 8cc\	.
.	.	.	.	.	.	.	.	.	.	.	.	.	.	8r	.
8.r	.	.	.	.	8.r	.	.	.	.	.	.	.	.	2r	.
.	.	.	.	.	.	.	.	.	.	.	.	.	8gg/	.	.
16E\	.	.	.	.	16E\	.	.	.	.	.	.	.	.	.	.
8.F\L	.	.	.	.	8.F\L	.	.	.	.	.	.	.	4ff/	.	.
16G\Jk	.	.	.	.	16G\Jk	.	.	.	.	.	.	.	.	.	.
=83	=83	=83	=83	=83	=83	=83	=83	=83	=83	=83	=83	=83	=83	=83	=83
4C/	.	2.r	2.r	.	4C/	.	2.r	.	2.r	.	2.r	.	4.gg/	8e\ 8cc\	.
.	.	.	.	.	.	.	.	.	.	.	.	.	.	8r	.
8.r	.	.	.	.	8.r	.	.	.	.	.	.	.	.	2r	.
.	.	.	.	.	.	.	.	.	.	.	.	.	8aa/	.	.
16C/	.	.	.	.	16C/	.	.	.	.	.	.	.	.	.	.
8.D\L	.	.	.	.	8.D\L	.	.	.	.	.	.	.	4gg/	.	.
16E\Jk	.	.	.	.	16E\Jk	.	.	.	.	.	.	.	.	.	.
=84	=84	=84	=84	=84	=84	=84	=84	=84	=84	=84	=84	=84	=84	=84	=84
4F\	.	2.r	2.r	.	4F\	.	2.r	.	2.r	.	2.r	.	4.aa/	8f\ 8cc\	.
.	.	.	.	.	.	.	.	.	.	.	.	.	.	8r	.
8.r	.	.	.	.	8.r	.	.	.	.	.	.	.	.	2r	.
.	.	.	.	.	.	.	.	.	.	.	.	.	8bb-/	.	.
16D\	.	.	.	.	16D\	.	.	.	.	.	.	.	.	.	.
8.E\L	.	.	.	.	8.E\L	.	.	.	.	.	.	.	4aa/	.	.
16F\Jk	.	.	.	.	16F\Jk	.	.	.	.	.	.	.	.	.	.
=85	=85	=85	=85	=85	=85	=85	=85	=85	=85	=85	=85	=85	=85	=85	=85
8.C\L	.	2.r	2.r	.	8.C\L	.	2.r	.	2.r	.	2.r	.	4gg/	8e\ 8cc\	.
.	.	.	.	.	.	.	.	.	.	.	.	.	.	8r	.
16D\k	.	.	.	.	16D\k	.	.	.	.	.	.	.	.	.	.
8.E\	.	.	.	.	8.E\	.	.	.	.	.	.	.	4r	2r	.
16D\k	.	.	.	.	16D\k	.	.	.	.	.	.	.	.	.	.
8.C#\	.	.	.	.	8.C#\	.	.	.	.	.	.	.	4r	.	.
16BBn\Jk	.	.	.	.	16BBn\Jk	.	.	.	.	.	.	.	.	.	.
=86	=86	=86	=86	=86	=86	=86	=86	=86	=86	=86	=86	=86	=86	=86	=86
2AA/	.	2.r	2.r	.	2AA/	.	2.r	.	2.r	.	2.r	.	4.aa/	8e\ 8cc#\	.
.	.	.	.	.	.	.	.	.	.	.	.	.	.	8r	.
.	.	.	.	.	.	.	.	.	.	.	.	.	.	2r	.
.	.	.	.	.	.	.	.	.	.	.	.	.	8bb-/	.	.
4r	.	.	.	.	4r	.	.	.	.	.	.	.	4aa/	.	.
=87	=87	=87	=87	=87	=87	=87	=87	=87	=87	=87	=87	=87	=87	=87	=87
4AA/	.	2.r	2.r	.	4AA/	.	2.r	.	2.r	.	2.r	.	4.gg/	8e\ 8cc#\	.
.	.	.	.	.	.	.	.	.	.	.	.	.	.	8r	.
8.r	.	.	.	.	8.r	.	.	.	.	.	.	.	.	2r	.
.	.	.	.	.	.	.	.	.	.	.	.	.	8ff/	.	.
16AA/	.	.	.	.	16AA/	.	.	.	.	.	.	.	.	.	.
8.BBn/L	.	.	.	.	8.BBn/L	.	.	.	.	.	.	.	4ee/	.	.
16C#/Jk	.	.	.	.	16C#/Jk	.	.	.	.	.	.	.	.	.	.
=88	=88	=88	=88	=88	=88	=88	=88	=88	=88	=88	=88	=88	=88	=88	=88
4D\	.	2.r	2.r	.	4D\	.	2.r	.	2.r	.	2.r	.	4.ff/	8d\ 8a\	.
.	.	.	.	.	.	.	.	.	.	.	.	.	.	8r	.
8.r	.	.	.	.	8.r	.	.	.	.	.	.	.	.	2r	.
.	.	.	.	.	.	.	.	.	.	.	.	.	8ee/	.	.
16E\	.	.	.	.	16E\	.	.	.	.	.	.	.	.	.	.
8.F\L	.	.	.	.	8.F\L	.	.	.	.	.	.	.	4dd/	.	.
16G\Jk	.	.	.	.	16G\Jk	.	.	.	.	.	.	.	.	.	.
=89	=89	=89	=89	=89	=89	=89	=89	=89	=89	=89	=89	=89	=89	=89	=89
4A\	.	2.r	2.r	.	4A\	.	2.r	.	2.r	.	2.r	.	4.ee/	8a\ 8cc#\	.
.	.	.	.	.	.	.	.	.	.	.	.	.	.	8r	.
8.r	.	.	.	.	8.r	.	.	.	.	.	.	.	.	2r	.
.	.	.	.	.	.	.	.	.	.	.	.	.	8bn/	.	.
16G\	.	.	.	.	16G\	.	.	.	.	.	.	.	.	.	.
8.F\L	.	.	.	.	8.F\L	.	.	.	.	.	.	.	4a/	.	.
16E\Jk	.	.	.	.	16E\Jk	.	.	.	.	.	.	.	.	.	.
*	*	*	*	*	*	*	*	*	*	*	*	*	*v	*v	*
=90	=90	=90	=90	=90	=90	=90	=90	=90	=90	=90	=90	=90	=90	=90
4D\	.	2.r	2.r	.	4D\	.	2.r	.	2.r	.	2.r	.	8r	.
.	.	.	.	.	.	.	.	.	.	.	.	.	8ddd\	.
4F#\	.	.	.	.	4F#\	.	.	.	.	.	.	.	8ddd\L	.
.	.	.	.	.	.	.	.	.	.	.	.	.	8ccc\	.
4D\	.	.	.	.	4D\	.	.	.	.	.	.	.	8ccc\	.
.	.	.	.	.	.	.	.	.	.	.	.	.	8bbn\J	.
=91	=91	=91	=91	=91	=91	=91	=91	=91	=91	=91	=91	=91	=91	=91
4G\	.	2.r	2.r	.	4G\	.	2.r	.	2.r	.	2.r	.	8bbn\L	.
.	.	.	.	.	.	.	.	.	.	.	.	.	8bn\ 8gg\	.
4BBn/	.	.	.	.	4BBn/	.	.	.	.	.	.	.	8b\ 8gg\	.
.	.	.	.	.	.	.	.	.	.	.	.	.	8b\ 8ff\	.
4GG/	.	.	.	.	4GG/	.	.	.	.	.	.	.	8b\ 8ff\	.
.	.	.	.	.	.	.	.	.	.	.	.	.	8cc\ 8ee\J	.
=92	=92	=92	=92	=92	=92	=92	=92	=92	=92	=92	=92	=92	=92	=92
4C/	.	2.r	2.r	.	4C/	.	2.r	.	2.r	.	2.r	.	8cc\ 8ee\L	.
.	.	.	.	.	.	.	.	.	.	.	.	.	8ccc\	.
4E\	.	.	.	.	4E\	.	.	.	.	.	.	.	8ccc\	.
.	.	.	.	.	.	.	.	.	.	.	.	.	8bb-\	.
4C/	.	.	.	.	4C/	.	.	.	.	.	.	.	8bb-\	.
.	.	.	.	.	.	.	.	.	.	.	.	.	8aa\J	.
=93	=93	=93	=93	=93	=93	=93	=93	=93	=93	=93	=93	=93	=93	=93
4F\	.	2.r	2.r	.	4F\	.	2.r	.	2.r	.	2.r	.	8aa\L	.
.	.	.	.	.	.	.	.	.	.	.	.	.	8a\ 8ff\	.
4A\	.	.	.	.	4A\	.	.	.	.	.	.	.	8a\ 8ff\	.
.	.	.	.	.	.	.	.	.	.	.	.	.	8a\ 8ee-\	.
4F\	.	.	.	.	4F\	.	.	.	.	.	.	.	8a\ 8ee-\	.
.	.	.	.	.	.	.	.	.	.	.	.	.	8b-\ 8dd\J	.
=94	=94	=94	=94	=94	=94	=94	=94	=94	=94	=94	=94	=94	=94	=94
4BB-/	.	2.r	2.r	.	4BB-/	.	2.r	.	2.r	.	2.r	.	8b-\ 8dd\L	.
.	.	.	.	.	.	.	.	.	.	.	.	.	8bb-\	.
4G\	.	.	.	.	4G\	.	.	.	.	.	.	.	8bb-\	.
.	.	.	.	.	.	.	.	.	.	.	.	.	8aa\	.
4F\	.	.	.	.	4F\	.	.	.	.	.	.	.	8aa\	.
.	.	.	.	.	.	.	.	.	.	.	.	.	8gg\J	.
=95	=95	=95	=95	=95	=95	=95	=95	=95	=95	=95	=95	=95	=95	=95
2E\	.	2.r	2.r	.	2E\	.	2.r	.	2.r	.	2.r	.	8gg\L	.
.	.	.	.	.	.	.	.	.	.	.	.	.	8g\ 8een\	.
.	.	.	.	.	.	.	.	.	.	.	.	.	8g\ 8ee\	.
.	.	.	.	.	.	.	.	.	.	.	.	.	8g#\ 8dd\	.
4E\	.	.	.	.	4E\	.	.	.	.	.	.	.	8g#\ 8dd\	.
.	.	.	.	.	.	.	.	.	.	.	.	.	8a\ 8cc#\J	.
=96	=96	=96	=96	=96	=96	=96	=96	=96	=96	=96	=96	=96	=96	=96
4AA/	.	2.r	2.r	.	4AA/	.	2.r	.	2.r	.	2.r	.	8a\ 8cc#\L	.
.	.	.	.	.	.	.	.	.	.	.	.	.	8aa\	.
4F\	.	.	.	.	4F\	.	.	.	.	.	.	.	8aa\	.
.	.	.	.	.	.	.	.	.	.	.	.	.	8gg\	.
4E\	.	.	.	.	4E\	.	.	.	.	.	.	.	8gg\	.
.	.	.	.	.	.	.	.	.	.	.	.	.	8ff\J	.
=97	=97	=97	=97	=97	=97	=97	=97	=97	=97	=97	=97	=97	=97	=97
2D\	.	2.r	2.r	.	2D\	.	2.r	.	2.r	.	2.r	.	8ff\L	.
.	.	.	.	.	.	.	.	.	.	.	.	.	8f\ 8dd\	.
.	.	.	.	.	.	.	.	.	.	.	.	.	8f\ 8dd\	.
.	.	.	.	.	.	.	.	.	.	.	.	.	8f#\ 8cc\	.
4D\	.	.	.	.	4D\	.	.	.	.	.	.	.	8f#\ 8cc\	.
.	.	.	.	.	.	.	.	.	.	.	.	.	8g\ 8bn\J	.
=98	=98	=98	=98	=98	=98	=98	=98	=98	=98	=98	=98	=98	=98	=98
4GG/	.	2.r	2.r	.	4GG/	.	2.r	.	2.r	.	2.r	.	8g\ 8bn\L	.
.	.	.	.	.	.	.	.	.	.	.	.	.	8g\ 8ee\	.
4r	.	.	.	.	4r	.	.	.	.	.	.	.	8g\ 8ee\	.
.	.	.	.	.	.	.	.	.	.	.	.	.	8g#\ 8dd\	.
4E\	.	.	.	.	4E\	.	.	.	.	.	.	.	8g#\ 8dd\	.
.	.	.	.	.	.	.	.	.	.	.	.	.	8a\ 8cc#\J	.
=99	=99	=99	=99	=99	=99	=99	=99	=99	=99	=99	=99	=99	=99	=99
4AA/	.	2.r	2.r	.	4AA/	.	2.r	.	2.r	.	2.r	.	8a\ 8cc#\L	.
.	.	.	.	.	.	.	.	.	.	.	.	.	8a\ 8ffn\	.
4r	.	.	.	.	4r	.	.	.	.	.	.	.	8a\ 8ff\	.
.	.	.	.	.	.	.	.	.	.	.	.	.	8a\ 8ee-\	.
4F\	.	.	.	.	4F\	.	.	.	.	.	.	.	8a\ 8ee-\	.
.	.	.	.	.	.	.	.	.	.	.	.	.	8b-\ 8dd\J	.
=100	=100	=100	=100	=100	=100	=100	=100	=100	=100	=100	=100	=100	=100	=100
4BB-/	.	2.r	2.r	.	4BB-/	.	2.r	.	2.r	.	2.r	.	8b-\ 8dd\L	.
.	.	.	.	.	.	.	.	.	.	.	.	.	8b-\ 8gg\	.
4r	.	.	.	.	4r	.	.	.	.	.	.	.	8b-\ 8gg\	.
.	.	.	.	.	.	.	.	.	.	.	.	.	8bn\ 8ff\	.
4G\	.	.	.	.	4G\	.	.	.	.	.	.	.	8b\ 8ff\	.
.	.	.	.	.	.	.	.	.	.	.	.	.	8cc\ 8ee\J	.
=101	=101	=101	=101	=101	=101	=101	=101	=101	=101	=101	=101	=101	=101	=101
4C/	.	2.r	2.r	.	4C/	.	2.r	.	2.r	.	2.r	.	8cc\ 8ee\L	.
.	.	.	.	.	.	.	.	.	.	.	.	.	8cc\ 8aa\	.
4r	.	.	.	.	4r	.	.	.	.	.	.	.	8cc\ 8aa\	.
.	.	.	.	.	.	.	.	.	.	.	.	.	8cc#\ 8gg\	.
4A\	.	.	.	.	4A\	.	.	.	.	.	.	.	8cc#\ 8gg\	.
.	.	.	.	.	.	.	.	.	.	.	.	.	8dd\ 8ff\J	.
=102	=102	=102	=102	=102	=102	=102	=102	=102	=102	=102	=102	=102	=102	=102
4D\	.	2.r	2.r	.	4D\	.	2.r	.	4r	.	4r	.	8dd\ 8ff\L	.
.	.	.	.	.	.	.	.	.	.	.	.	.	8bb-\	.
4r	.	.	.	.	4r	.	.	.	4dd\	p	4dd\	p	8bb-\	.
.	.	.	.	.	.	.	.	.	.	.	.	.	8gg#\	.
4r	.	.	.	.	4r	.	.	.	4ee\	.	4ee\	.	8gg#\	.
.	.	.	.	.	.	.	.	.	.	.	.	.	8aa\J	.
=103	=103	=103	=103	=103	=103	=103	=103	=103	=103	=103	=103	=103	=103	=103
2.r	.	2.r	2.r	.	2.r	.	2.r	.	4a/	.	4a/	.	8cc#\L	.
.	.	.	.	.	.	.	.	.	.	.	.	.	8aa\	.
.	.	.	.	.	.	.	.	.	4cc\	.	4cc\	.	8aa\	.
.	.	.	.	.	.	.	.	.	.	.	.	.	8ff#\	.
.	.	.	.	.	.	.	.	.	4dd\	.	4dd\	.	8ff#\	.
.	.	.	.	.	.	.	.	.	.	.	.	.	8gg\J	.
=104	=104	=104	=104	=104	=104	=104	=104	=104	=104	=104	=104	=104	=104	=104
2.r	.	2.r	2.r	.	2.r	.	2.r	.	4g/	.	4g/	.	8bn\L	.
.	.	.	.	.	.	.	.	.	.	.	.	.	8gg\	.
.	.	.	.	.	.	.	.	.	4b-\	.	4b-\	.	8gg\	.
.	.	.	.	.	.	.	.	.	.	.	.	.	8ee\	.
.	.	.	.	.	.	.	.	.	4cc\	.	4cc\	.	8ee\	.
.	.	.	.	.	.	.	.	.	.	.	.	.	8ff\J	.
=105	=105	=105	=105	=105	=105	=105	=105	=105	=105	=105	=105	=105	=105	=105
2.r	.	2.r	2.r	.	2.r	.	2.r	.	4f/	.	4f/	.	8a\L	.
.	.	.	.	.	.	.	.	.	.	.	.	.	8ff\	.
.	.	.	.	.	.	.	.	.	4a/	.	4a/	.	8ff\	.
.	.	.	.	.	.	.	.	.	.	.	.	.	8dd\	.
.	.	.	.	.	.	.	.	.	4b-\	.	4b-\	.	8dd\	.
.	.	.	.	.	.	.	.	.	.	.	.	.	8ee-\J	.
=106	=106	=106	=106	=106	=106	=106	=106	=106	=106	=106	=106	=106	=106	=106
2.r	.	2.r	2.r	.	2.r	.	2.r	.	2.g/	.	2.g/	.	8ee-\L	.
.	.	.	.	.	.	.	.	.	.	.	.	.	8gg\	.
.	.	.	.	.	.	.	.	.	.	.	.	.	8gg\	.
.	.	.	.	.	.	.	.	.	.	.	.	.	8bb-\	.
.	.	.	.	.	.	.	.	.	.	.	.	.	8bb-\	.
.	.	.	.	.	.	.	.	.	.	.	.	.	8dd\J	.
=107	=107	=107	=107	=107	=107	=107	=107	=107	=107	=107	=107	=107	=107	=107
8r	.	2.r	8r	.	8r	.	8r	.	8a\L	f	8a\L	f	8cc#\L	f
8c#\	f	.	8c#\	f	8c#\	f	8e\	f	8aa\	.	8aa\	.	8aa\	.
8d\L	.	.	8d\L	.	8d\L	.	8a\L	.	8ff\	.	8ff\	.	8ff\	.
8D\	.	.	8D\	.	8D\	.	8f\	.	8dd\	.	8dd\	.	8dd\	.
8d\	.	.	8d\	.	8d\	.	8f\	.	8bbn\	.	8bbn\	.	8bbn\	.
8e\J	.	.	8e\J	.	8e\J	.	8bn\J	.	8gg#\J	.	8gg#\J	.	8gg#\J	.
=108	=108	=108	=108	=108	=108	=108	=108	=108	=108	=108	=108	=108	=108	=108
8c#\L	.	2.r	8c#\L	.	8c#\L	.	8e\L	.	8aa\L	.	8aa\L	.	8aa\L	.
8A\	.	.	8A\	.	8A\	.	8e\	.	8cc#\	.	8cc#\	.	8cc#\	.
8F\	.	.	8F\	.	8F\	.	8a\	.	8dd\	.	8dd\	.	8dd\	.
8D\	.	.	8D\	.	8D\	.	8f\	.	8aa\	.	8aa\	.	8aa\	.
8d\	.	.	8d\	.	8d\	.	8f\	.	8bbn\	.	8bbn\	.	8bbn\	.
8e\J	.	.	8e\J	.	8e\J	.	8bn\J	.	8gg#\J	.	8gg#\J	.	8gg#\J	.
=109	=109	=109	=109	=109	=109	=109	=109	=109	=109	=109	=109	=109	=109	=109
8c#\L	.	2.r	8c#\L	.	8c#\L	.	8e\L	.	8aa\L	.	8aa\L	.	8aa\L	.
8A\	.	.	8A\	.	8A\	.	8e\	.	8cc#\	.	8cc#\	.	8cc#\	.
8F\	.	.	8F\	.	8F\	.	8a\	.	8dd\	.	8dd\	.	8dd\	.
8D\	.	.	8D\	.	8D\	.	8f\	.	8a\	.	8a\	.	8a\	.
8D\	.	.	8D\	.	8D\	.	8f\	.	8bn\	.	8bn\	.	8bn\	.
8E\J	.	.	8E\J	.	8E\J	.	8Bn\J	.	8g#\J	.	8g#\J	.	8g#\J	.
=110	=110	=110	=110	=110	=110	=110	=110	=110	=110	=110	=110	=110	=110	=110
8C#\L	.	2.r	8C#\L	.	8C#\L	.	8e\L	.	8a\L	.	8a\L	.	8a\L	.
8A\	.	.	8A\	.	8A\	.	8e\	.	8cc#\	.	8cc#\	.	8cc#\	.
8F\	.	.	8F\	.	8F\	.	8a\	.	8dd\	.	8dd\	.	8dd\	.
8D\	.	.	8D\	.	8D\	.	8f\	.	8a\	.	8a\	.	8a\	.
8D\	.	.	8D\	.	8D\	.	8f\	.	8bn\	.	8bn\	.	8bn\	.
8E\J	.	.	8E\J	.	8E\J	.	8Bn\J	.	8g#\J	.	8g#\J	.	8g#\J	.
=111	=111	=111	=111	=111	=111	=111	=111	=111	=111	=111	=111	=111	=111	=111
4AA/	.	2.r	4AA/	.	4AA/	.	4c\	.	4a/	.	4a/	.	8a\L	.
.	.	.	.	.	.	.	.	.	.	.	.	.	16aa\L	.
.	.	.	.	.	.	.	.	.	.	.	.	.	16gg\JJ	.
4r	.	.	4r	.	4r	.	4r	.	4r	.	4r	.	16ff\LL	.
.	.	.	.	.	.	.	.	.	.	.	.	.	16ee\	.
.	.	.	.	.	.	.	.	.	.	.	.	.	16dd\	.
.	.	.	.	.	.	.	.	.	.	.	.	.	16ccn\JJ	.
4r	.	.	4r	.	4r	.	4r	.	4r	.	4r	.	16b-/LL	.
.	.	.	.	.	.	.	.	.	.	.	.	.	16a/	.
.	.	.	.	.	.	.	.	.	.	.	.	.	16g/	.
.	.	.	.	.	.	.	.	.	.	.	.	.	16f#/JJ	.
=112	=112	=112	=112	=112	=112	=112	=112	=112	=112	=112	=112	=112	=112	=112
4G\	.	2.r	2.r	.	4G\	.	2.r	.	2.r	.	2.r	.	16g/LL	.
.	.	.	.	.	.	.	.	.	.	.	.	.	16b-/	.
.	.	.	.	.	.	.	.	.	.	.	.	.	16f#/	.
.	.	.	.	.	.	.	.	.	.	.	.	.	16b-/JJ	.
4r	.	.	.	.	4r	.	.	.	.	.	.	.	16g/LL	.
.	.	.	.	.	.	.	.	.	.	.	.	.	16b-/	.
.	.	.	.	.	.	.	.	.	.	.	.	.	16f#/	.
.	.	.	.	.	.	.	.	.	.	.	.	.	16b-/JJ	.
4r	.	.	.	.	4r	.	.	.	.	.	.	.	16g/LL	.
.	.	.	.	.	.	.	.	.	.	.	.	.	16b-/	.
.	.	.	.	.	.	.	.	.	.	.	.	.	16f#/	.
.	.	.	.	.	.	.	.	.	.	.	.	.	16b-/JJ	.
=113	=113	=113	=113	=113	=113	=113	=113	=113	=113	=113	=113	=113	=113	=113
4G\	.	2.r	2.r	.	4G\	.	2.r	.	2.r	.	2.r	.	8g\L	.
.	.	.	.	.	.	.	.	.	.	.	.	.	16bb-\L	.
.	.	.	.	.	.	.	.	.	.	.	.	.	16aa\JJ	.
4r	.	.	.	.	4r	.	.	.	.	.	.	.	16gg\LL	.
.	.	.	.	.	.	.	.	.	.	.	.	.	16ff\	.
.	.	.	.	.	.	.	.	.	.	.	.	.	16ee\	.
.	.	.	.	.	.	.	.	.	.	.	.	.	16dd\JJ	.
4r	.	.	.	.	4r	.	.	.	.	.	.	.	16cc\LL	.
.	.	.	.	.	.	.	.	.	.	.	.	.	16b-\	.
.	.	.	.	.	.	.	.	.	.	.	.	.	16a\	.
.	.	.	.	.	.	.	.	.	.	.	.	.	16g#\JJ	.
=114	=114	=114	=114	=114	=114	=114	=114	=114	=114	=114	=114	=114	=114	=114
4A\	.	2.r	2.r	.	4A\	.	2.r	.	2.r	.	2.r	.	16a\LL	.
.	.	.	.	.	.	.	.	.	.	.	.	.	16cc#\	.
.	.	.	.	.	.	.	.	.	.	.	.	.	16g#\	.
.	.	.	.	.	.	.	.	.	.	.	.	.	16cc#\JJ	.
4r	.	.	.	.	4r	.	.	.	.	.	.	.	16a\LL	.
.	.	.	.	.	.	.	.	.	.	.	.	.	16cc#\	.
.	.	.	.	.	.	.	.	.	.	.	.	.	16g#\	.
.	.	.	.	.	.	.	.	.	.	.	.	.	16cc#\JJ	.
4r	.	.	.	.	4r	.	.	.	.	.	.	.	16a\LL	.
.	.	.	.	.	.	.	.	.	.	.	.	.	16cc#\	.
.	.	.	.	.	.	.	.	.	.	.	.	.	16g#\	.
.	.	.	.	.	.	.	.	.	.	.	.	.	16cc#\JJ	.
=115	=115	=115	=115	=115	=115	=115	=115	=115	=115	=115	=115	=115	=115	=115
4A\	.	2.r	2.r	.	4A\	.	2.r	.	2.r	.	2.r	.	8a\L	.
.	.	.	.	.	.	.	.	.	.	.	.	.	16ccc#\L	.
.	.	.	.	.	.	.	.	.	.	.	.	.	16bbn\JJ	.
4r	.	.	.	.	4r	.	.	.	.	.	.	.	16aa\LL	.
.	.	.	.	.	.	.	.	.	.	.	.	.	16gg\	.
.	.	.	.	.	.	.	.	.	.	.	.	.	16ff\	.
.	.	.	.	.	.	.	.	.	.	.	.	.	16ee\JJ	.
4r	.	.	.	.	4r	.	.	.	.	.	.	.	16dd\LL	.
.	.	.	.	.	.	.	.	.	.	.	.	.	16cc\	.
.	.	.	.	.	.	.	.	.	.	.	.	.	16b-\	.
.	.	.	.	.	.	.	.	.	.	.	.	.	16a\JJ	.
=116	=116	=116	=116	=116	=116	=116	=116	=116	=116	=116	=116	=116	=116	=116
4B-\	.	2.r	2.r	.	4B-\	.	2.r	.	2.r	.	2.r	.	16b-\LL	.
.	.	.	.	.	.	.	.	.	.	.	.	.	16dd\	.
.	.	.	.	.	.	.	.	.	.	.	.	.	16a\	.
.	.	.	.	.	.	.	.	.	.	.	.	.	16dd\JJ	.
4r	.	.	.	.	4r	.	.	.	.	.	.	.	16b-\LL	.
.	.	.	.	.	.	.	.	.	.	.	.	.	16dd\	.
.	.	.	.	.	.	.	.	.	.	.	.	.	16a\	.
.	.	.	.	.	.	.	.	.	.	.	.	.	16dd\JJ	.
4r	.	.	.	.	4r	.	.	.	.	.	.	.	16b-\LL	.
.	.	.	.	.	.	.	.	.	.	.	.	.	16dd\	.
.	.	.	.	.	.	.	.	.	.	.	.	.	16a\	.
.	.	.	.	.	.	.	.	.	.	.	.	.	16dd\JJ	.
=117	=117	=117	=117	=117	=117	=117	=117	=117	=117	=117	=117	=117	=117	=117
4B-\	.	2.r	2.r	.	4B-\	.	2.r	.	2.r	.	2.r	.	8b-\L	.
.	.	.	.	.	.	.	.	.	.	.	.	.	16ddd\L	.
.	.	.	.	.	.	.	.	.	.	.	.	.	16ccc\JJ	.
4r	.	.	.	.	4r	.	.	.	.	.	.	.	16bb-\LL	.
.	.	.	.	.	.	.	.	.	.	.	.	.	16aa\	.
.	.	.	.	.	.	.	.	.	.	.	.	.	16gg\	.
.	.	.	.	.	.	.	.	.	.	.	.	.	16ff\JJ	.
4r	.	.	.	.	4r	.	.	.	.	.	.	.	16ee\LL	.
.	.	.	.	.	.	.	.	.	.	.	.	.	16dd\	.
.	.	.	.	.	.	.	.	.	.	.	.	.	16cc#\	.
.	.	.	.	.	.	.	.	.	.	.	.	.	16bn\JJ	.
=118	=118	=118	=118	=118	=118	=118	=118	=118	=118	=118	=118	=118	=118	=118
[2.A\	.	2.r	2.r	.	[2.A\	.	2.r	.	2.r	.	2.r	.	16cc#\LL	.
.	.	.	.	.	.	.	.	.	.	.	.	.	16ee\	.
.	.	.	.	.	.	.	.	.	.	.	.	.	16bn\	.
.	.	.	.	.	.	.	.	.	.	.	.	.	16ee\JJ	.
.	.	.	.	.	.	.	.	.	.	.	.	.	16cc#\LL	.
.	.	.	.	.	.	.	.	.	.	.	.	.	16ee\	.
.	.	.	.	.	.	.	.	.	.	.	.	.	16b\	.
.	.	.	.	.	.	.	.	.	.	.	.	.	16ee\JJ	.
.	.	.	.	.	.	.	.	.	.	.	.	.	16cc#\LL	.
.	.	.	.	.	.	.	.	.	.	.	.	.	16ee\	.
.	.	.	.	.	.	.	.	.	.	.	.	.	16b\	.
.	.	.	.	.	.	.	.	.	.	.	.	.	16ee\JJ	.
=119	=119	=119	=119	=119	=119	=119	=119	=119	=119	=119	=119	=119	=119	=119
2.A\_	.	2.r	2.r	.	2.A\_	.	2.r	.	2.r	.	2.r	.	16a\LL	.
.	.	.	.	.	.	.	.	.	.	.	.	.	16ee\	.
.	.	.	.	.	.	.	.	.	.	.	.	.	16bn\	.
.	.	.	.	.	.	.	.	.	.	.	.	.	16ee\JJ	.
.	.	.	.	.	.	.	.	.	.	.	.	.	16cc#\LL	.
.	.	.	.	.	.	.	.	.	.	.	.	.	16ee\	.
.	.	.	.	.	.	.	.	.	.	.	.	.	16b\	.
.	.	.	.	.	.	.	.	.	.	.	.	.	16ee\JJ	.
.	.	.	.	.	.	.	.	.	.	.	.	.	16cc#\LL	.
.	.	.	.	.	.	.	.	.	.	.	.	.	16ee\	.
.	.	.	.	.	.	.	.	.	.	.	.	.	16b\	.
.	.	.	.	.	.	.	.	.	.	.	.	.	16ee\JJ	.
=120	=120	=120	=120	=120	=120	=120	=120	=120	=120	=120	=120	=120	=120	=120
2.A\_	.	2.r	2.r	.	2.A\_	.	2.r	.	2.r	.	2.r	.	16a\LL	.
.	.	.	.	.	.	.	.	.	.	.	.	.	16ee\	.
.	.	.	.	.	.	.	.	.	.	.	.	.	16bn\	.
.	.	.	.	.	.	.	.	.	.	.	.	.	16ee\JJ	.
.	.	.	.	.	.	.	.	.	.	.	.	.	16cc#\LL	.
.	.	.	.	.	.	.	.	.	.	.	.	.	16ee\	.
.	.	.	.	.	.	.	.	.	.	.	.	.	16b\	.
.	.	.	.	.	.	.	.	.	.	.	.	.	16ee\JJ	.
.	.	.	.	.	.	.	.	.	.	.	.	.	16cc#\LL	.
.	.	.	.	.	.	.	.	.	.	.	.	.	16ee\	.
.	.	.	.	.	.	.	.	.	.	.	.	.	16b\	.
.	.	.	.	.	.	.	.	.	.	.	.	.	16ee\JJ	.
=121	=121	=121	=121	=121	=121	=121	=121	=121	=121	=121	=121	=121	=121	=121
2A\]	.	2.r	2.r	.	2A\]	.	2.r	.	2.r	.	2.r	.	16a\LL	.
.	.	.	.	.	.	.	.	.	.	.	.	.	16cc#\	.
.	.	.	.	.	.	.	.	.	.	.	.	.	16bn\	.
.	.	.	.	.	.	.	.	.	.	.	.	.	16a\JJ	.
.	.	.	.	.	.	.	.	.	.	.	.	.	16ee\LL	.
.	.	.	.	.	.	.	.	.	.	.	.	.	16gg\	.
.	.	.	.	.	.	.	.	.	.	.	.	.	16ff\	.
.	.	.	.	.	.	.	.	.	.	.	.	.	16ee\JJ	.
4C#/	.	.	.	.	4C#/	.	.	.	.	.	.	.	16aa\LL	.
.	.	.	.	.	.	.	.	.	.	.	.	.	16gg\	.
.	.	.	.	.	.	.	.	.	.	.	.	.	16ff\	.
.	.	.	.	.	.	.	.	.	.	.	.	.	16ee\JJ	.
=122	=122	=122	=122	=122	=122	=122	=122	=122	=122	=122	=122	=122	=122	=122
2.D\	.	2.r	2.r	.	2.D\	.	2.r	.	2.r	.	2.r	.	16ff\LL	.
.	.	.	.	.	.	.	.	.	.	.	.	.	16dd\	.
.	.	.	.	.	.	.	.	.	.	.	.	.	16ff\	.
.	.	.	.	.	.	.	.	.	.	.	.	.	16aa\JJ	.
.	.	.	.	.	.	.	.	.	.	.	.	.	16ddd\LL	.
.	.	.	.	.	.	.	.	.	.	.	.	.	16dd\	.
.	.	.	.	.	.	.	.	.	.	.	.	.	16ff\	.
.	.	.	.	.	.	.	.	.	.	.	.	.	16aa\JJ	.
.	.	.	.	.	.	.	.	.	.	.	.	.	16ddd\LL	.
.	.	.	.	.	.	.	.	.	.	.	.	.	16dd\	.
.	.	.	.	.	.	.	.	.	.	.	.	.	16ff\	.
.	.	.	.	.	.	.	.	.	.	.	.	.	16aa\JJ	.
=123	=123	=123	=123	=123	=123	=123	=123	=123	=123	=123	=123	=123	=123	=123
4D\	.	2.r	2.r	.	4D\	.	2.r	.	2.r	.	2.r	.	8ddd\L	.
.	.	.	.	.	.	.	.	.	.	.	.	.	8dd\J	.
4A\	.	.	.	.	4A\	.	.	.	.	.	.	.	4.ee\	.
4AA/	.	.	.	.	4AA/	.	.	.	.	.	.	.	.	.
.	.	.	.	.	.	.	.	.	.	.	.	.	8dd\	.
=124	=124	=124	=124	=124	=124	=124	=124	=124	=124	=124	=124	=124	=124	=124
4D\	f	2.r	4D\	f	4D\	f	4f\	f	4aa\	f	4aa\	f	4dd\	.
8.r	.	.	8.r	.	8.r	.	8.r	.	8r	.	8r	.	8r	.
.	.	.	.	.	.	.	.	.	16aa\LL	.	16aa\LL	.	16aa\LL	f
16D\	.	.	16D\	.	16D\	.	16f\	.	16gg\JJ	.	16gg\JJ	.	16gg\JJ	.
8.E\L	.	.	8.E\L	.	8.E\L	.	8.g\L	.	16ff\LL	.	16ff\LL	.	16ff\LL	.
.	.	.	.	.	.	.	.	.	16ee\	.	16ee\	.	16ee\	.
.	.	.	.	.	.	.	.	.	16dd\	.	16dd\	.	16dd\	.
16F#\Jk	.	.	16F#\Jk	.	16F#\Jk	.	16a\Jk	.	16cc\JJ	.	16cc\JJ	.	16cc\JJ	.
=125	=125	=125	=125	=125	=125	=125	=125	=125	=125	=125	=125	=125	=125	=125
4G\	.	2.r	4G\	.	4G\	.	4d\	.	8b-\L	.	8b-\L	.	8b-\L	.
.	.	.	.	.	.	.	.	.	8g\	.	8g\	.	8g\	.
8.r	.	.	8.r	.	8.r	.	8.r	.	8bn\	.	8bn\	.	8bn\	.
.	.	.	.	.	.	.	.	.	8cc#\J	.	8cc#\J	.	8cc#\J	.
16G\	.	.	16G\	.	16G\	.	16b-\	.	.	.	.	.	.	.
8.A\L	.	.	8.A\L	.	8.A\L	.	8.cc\L	.	4dd\	.	4dd\	.	4dd\	.
16B-\Jk	.	.	16B-\Jk	.	16B-\Jk	.	16dd\Jk	.	.	.	.	.	.	.
=126	=126	=126	=126	=126	=126	=126	=126	=126	=126	=126	=126	=126	=126	=126
4E\	.	2.r	4E\	.	4E\	.	4cc\	.	4gg\	.	4gg\	.	4gg\	.
8.r	.	.	8.r	.	8.r	.	8.r	.	8r	.	8r	.	8r	.
.	.	.	.	.	.	.	.	.	16gg\LL	.	(16gg\LL	.	16gg\LL	.
16C/	.	.	16C/	.	16C/	.	16e\	.	16ff\JJ	.	16ff\JJ)	.	16ff\JJ	.
8.D\L	.	.	8.D\L	.	8.D\L	.	8.f\L	.	16ee\LL	.	16ee\LL	.	16ee\LL	.
.	.	.	.	.	.	.	.	.	16dd\	.	16dd\	.	16dd\	.
.	.	.	.	.	.	.	.	.	16cc\	.	16cc\	.	16cc\	.
16E\Jk	.	.	16E\Jk	.	16E\Jk	.	16g\Jk	.	16b-\JJ	.	16b-\JJ	.	16b-\JJ	.
=127	=127	=127	=127	=127	=127	=127	=127	=127	=127	=127	=127	=127	=127	=127
4F\	.	2.r	4F\	.	4F\	.	4c\	.	8a/L	.	8a/L	.	8a/L	.
.	.	.	.	.	.	.	.	.	8f/	.	8f/	.	8f/	.
8.r	.	.	8.r	.	8.r	.	8.r	.	8a/	.	8a/	.	8a/	.
.	.	.	.	.	.	.	.	.	8bn/J	.	8bn/J	.	8bn/J	.
16F\	.	.	16F\	.	16F\	.	16a\	.	.	.	.	.	.	.
8.G\L	.	.	8.G\L	.	8.G\L	.	8.b-\L	.	4cc\	.	4cc\	.	4cc\	.
16A\Jk	.	.	16A\Jk	.	16A\Jk	.	16dd\Jk	.	.	.	.	.	.	.
=128	=128	=128	=128	=128	=128	=128	=128	=128	=128	=128	=128	=128	=128	=128
4D\	.	2.r	4D\	.	4D\	.	4b-\	.	4ff\	.	4ff\	.	4ff\	.
8.r	.	.	8.r	.	8.r	.	8.r	.	8r	.	8r	.	8r	.
.	.	.	.	.	.	.	.	.	16ff\LL	.	16ff\LL	.	16ff\LL	.
16BB-/	.	.	16BB-/	.	16BB-/	.	16d\	.	16ee\JJ	.	16ee\JJ	.	16ee\JJ	.
8.C/L	.	.	8.C/L	.	8.C/L	.	8.e\L	.	16dd\LL	.	16dd\LL	.	16dd\LL	.
.	.	.	.	.	.	.	.	.	16cc\	.	16cc\	.	16cc\	.
.	.	.	.	.	.	.	.	.	16b-\	.	16b-\	.	16b-\	.
16D/Jk	.	.	16D/Jk	.	16D/Jk	.	16f\Jk	.	16a\JJ	.	16a\JJ	.	16a\JJ	.
=129	=129	=129	=129	=129	=129	=129	=129	=129	=129	=129	=129	=129	=129	=129
4E\	.	2.r	4E\	.	4E\	.	4c#\	.	8g/L	.	8g/L	.	8g/L	.
.	.	.	.	.	.	.	.	.	8e/	.	8e/	.	8e/	.
8.r	.	.	8.r	.	8.r	.	8.r	.	8g/	.	8g/	.	8g/	.
.	.	.	.	.	.	.	.	.	8a/J	.	8a/J	.	8a/J	.
16E\	.	.	16E\	.	16E\	.	16g\	.	.	.	.	.	.	.
8.F\L	.	.	8.F\L	.	8.F\L	.	8.a\L	.	4b-\	.	4b-\	.	4b-\	.
16G\Jk	.	.	16G\Jk	.	16G\Jk	.	16b-\Jk	.	.	.	.	.	.	.
=130	=130	=130	=130	=130	=130	=130	=130	=130	=130	=130	=130	=130	=130	=130
4C#/	.	2.r	4C#/	.	4C#/	.	4a\	.	4ee\	.	4ee\	.	4ee\	.
8.r	.	.	8.r	.	8.r	.	8.r	.	8r	.	8r	.	8r	.
.	.	.	.	.	.	.	.	.	16ee\LL	.	16ee\LL	.	16ee\LL	.
16AA/	.	.	16AA/	.	16AA/	.	16c#\	.	16dd\JJ	.	16dd\JJ	.	16dd\JJ	.
8.BBn/L	.	.	8.BBn/L	.	8.BBn/L	.	8.d\L	.	16cc#\LL	.	16cc#\LL	.	16cc#\LL	.
.	.	.	.	.	.	.	.	.	16bn\	.	16bn\	.	16bn\	.
.	.	.	.	.	.	.	.	.	16a\	.	16a\	.	16a\	.
16C#/Jk	.	.	16C#/Jk	.	16C#/Jk	.	16e\Jk	.	16g\JJ	.	16g\JJ	.	16g\JJ	.
=131	=131	=131	=131	=131	=131	=131	=131	=131	=131	=131	=131	=131	=131	=131
4D\	.	2.r	4D\	.	4D\	.	4A/	.	8f\L	.	8f\L	.	8f\L	.
.	.	.	.	.	.	.	.	.	8d\	.	8d\	.	8d\	.
4D\	.	.	4D\	.	4D\	.	4A/	.	8f\	.	8f\	.	8f\	.
.	.	.	.	.	.	.	.	.	8a\	.	8a\	.	8a\	.
4D\	.	.	4D\	.	4D\	.	4A/	.	8dd\	.	8dd\	.	8dd\	.
.	.	.	.	.	.	.	.	.	8ff\J	.	8ff\J	.	8ff\J	.
=132	=132	=132	=132	=132	=132	=132	=132	=132	=132	=132	=132	=132	=132	=132
4D\	.	2.r	4D\	.	4D\	.	4f\	.	8aa\L	.	8aa\L	.	8aa\L	.
.	.	.	.	.	.	.	.	.	8ff\	.	8ff\	.	8ff\	.
4D\	.	.	4D\	.	4D\	.	4f\	.	8dd\	.	8dd\	.	8dd\	.
.	.	.	.	.	.	.	.	.	8a\	.	8a\	.	8a\	.
4D\	.	.	4D\	.	4D\	.	4f\	.	8f\	.	8f\	.	8f\	.
.	.	.	.	.	.	.	.	.	8d\J	.	8d\J	.	8d\J	.
=133	=133	=133	=133	=133	=133	=133	=133	=133	=133	=133	=133	=133	=133	=133
4GG/	.	2.r	4GG/	.	4GG/	.	4d\	.	4b-\	.	4b-\	.	4b-\	.
4r	.	.	4r	.	4r	.	4r	.	8r	.	8r	.	8r	.
.	.	.	.	.	.	.	.	.	16b-/LL	.	16b-/LL	.	16b-/LL	.
.	.	.	.	.	.	.	.	.	16a/JJ	.	16a/JJ	.	16a/JJ	.
4r	.	.	4r	.	4r	.	4r	.	16g/LL	.	16g/LL	.	16g/LL	.
.	.	.	.	.	.	.	.	.	16f/	.	16f/	.	16f/	.
.	.	.	.	.	.	.	.	.	16e/	.	16e/	.	16e/	.
.	.	.	.	.	.	.	.	.	16d/JJ	.	16d/JJ	.	16d/JJ	.
=134	=134	=134	=134	=134	=134	=134	=134	=134	=134	=134	=134	=134	=134	=134
4AA/	.	2.r	4AA/	.	4AA/	.	4A/	.	4A/	.	4A/	.	4A/	.
4r	.	.	4r	.	4r	.	4r	.	8r	.	8r	.	8r	.
.	.	.	.	.	.	.	.	.	16b-/LL	.	16b-/LL	.	16b-/LL	.
.	.	.	.	.	.	.	.	.	16a/JJ	.	16a/JJ	.	16a/JJ	.
4r	.	.	4r	.	4r	.	4r	.	16g/LL	.	16g/LL	.	16g/LL	.
.	.	.	.	.	.	.	.	.	16f/	.	16f/	.	16f/	.
.	.	.	.	.	.	.	.	.	16e/	.	16e/	.	16e/	.
.	.	.	.	.	.	.	.	.	16d/JJ	.	16d/JJ	.	16d/JJ	.
=135	=135	=135	=135	=135	=135	=135	=135	=135	=135	=135	=135	=135	=135	=135
4GG/	.	2.r	4GG/	.	4GG/	.	4G/	.	4G/	.	4G/	.	4G/	.
2AA\	.	.	2AA/	.	2AA/	.	2A/	.	2A/	.	2A/	.	2A/	.
=136	=136	=136	=136	=136	=136	=136	=136	=136	=136	=136	=136	=136	=136	=136
2.D;\	.	2.r	2.D;\	.	2.D;\	.	2.d;\	.	2.d;/	.	2.d;/	.	2.d;/	.
==	==	==	==	==	==	==	==	==	==	==	==	==	==	==
*-	*-	*-	*-	*-	*-	*-	*-	*-	*-	*-	*-	*-	*-	*-
!!!ENC: Don Anthony
!!!END: 2005/06/10/
!!!ONB: Converted to Humdrum by Craig Sapp 2005/06/26/
